; HEADER_BLOCK_START
; generated by Creality_Print V5.1.0.9484 on 2024-07-08 at 18:47:05
; total layer number: 40
; filament_density: 1.24
; filament_diameter: 1.75
; max_z_height: 8.00
; HEADER_BLOCK_END

; MINX = 101.00
; MINY = 99.00
; MINZ = 0.00
; MAXX = 119.00
; MAXY = 121.00
; MAXZ = 8.00

; THUMBNAIL_BLOCK_START

;
; THUMBNAIL_BLOCK_END

; THUMBNAIL_BLOCK_START

;
; THUMBNAIL_BLOCK_END

; external perimeters extrusion width = 0.42mm
; perimeters extrusion width = 0.45mm
; infill extrusion width = 0.45mm
; solid infill extrusion width = 0.42mm
; top infill extrusion width = 0.42mm
; first layer extrusion width = 0.46mm

; EXECUTABLE_BLOCK_START
M73 P0 R9
M201 X5000 Y5000 Z500 E5000
M203 X500 Y500 Z30 E100
M204 P5000 R2500 T5000 ; sets acceleration (P, T) and retract acceleration (R), mm/sec^2
M205 X10.00 Y10.00 Z0.40 E5.00 ; sets the jerk limits, mm/sec
;TYPE:Custom
M220 S100 ;Reset Feedrate 
M221 S100 ;Reset Flowrate 
 
M140 S60 ;Set final bed temp 
G28 ;Home 
 
G92 E0 ;Reset Extruder 
G1 Z2.0 F3000 ;Move Z Axis up 
M104 S220 ;Set final nozzle temp 
G1 X-2.1 Y20 Z0.28 F5000.0 ;Move to start position 
M190 S60 ;Wait for bed temp to stabilize 
M109 S220 ;Wait for nozzle temp to stabilize 
G1 X-2.1 Y145.0 Z0.28 F1500.0 E15 ;Draw the first line 
G1 X-2.4 Y145.0 Z0.28 F5000.0 ;Move to side a little 
G1 X-2.4 Y20 Z0.28 F1500.0 E30 ;Draw the second line 
G92 E0  ;Reset Extruder 
G1 E-1.0000 F1800 ;Retract a bit 
M73 P1 R9
G1 Z2.0 F3000 ;Move Z Axis up 
G1 E0.0000 F1800
G90
G21
M83 ; use relative distances for extrusion
; filament start gcode
M106 S0
;LAYER_CHANGE
;Z:0.2
;HEIGHT:0.2
;BEFORE_LAYER_CHANGE
;0.2
G92 E0
M106 P2 S178
M106 S0

G1 E-1.2 F1800
M106 S0
;_SET_FAN_SPEED_CHANGING_LAYER
M204 P500
M205 X8 Y8
; printing object reaction-wheel-adapter-v2.STL id:19140616248623182 copy 0
M204 T500
G1 Z.4 F9000
M106 S0
G1 X101.647 Y116.101
M106 S0
G1 Z.4
M106 S0
M73 P2 R9
G1 Z.2
M106 S0
G1 E1.2 F1800
M106 S0
;TYPE:Inner wall
;WIDTH:0.459999
M106 S0
G1 X101.647 Y103.898 E.41475
G1 X102.172 Y103.225 E.02901
G1 X102.894 Y102.472 E.03547
G1 X103.678 Y101.803 E.03502
G1 X104.547 Y101.2 E.03594
G1 X105.461 Y100.696 E.03546
G1 X106.421 Y100.286 E.03547
G1 X107.417 Y99.975 E.03547
G1 X108.44 Y99.766 E.03547
G1 X109.478 Y99.661 E.03547
G1 X110.522 Y99.661 E.03547
G1 X111.56 Y99.766 E.03547
G1 X112.583 Y99.975 E.03547
G1 X113.579 Y100.286 E.03547
G1 X114.539 Y100.696 E.03547
G1 X115.453 Y101.201 E.03547
G1 X116.311 Y101.794 E.03547
G1 X117.106 Y102.472 E.03547
G1 X117.827 Y103.225 E.03547
G1 X118.353 Y103.898 E.02901
G1 X118.353 Y116.102 E.41476
G1 X117.827 Y116.775 E.02901
G1 X117.106 Y117.528 E.03547
G1 X116.311 Y118.206 E.03547
G1 X115.453 Y118.799 E.03547
G1 X114.539 Y119.304 E.03547
G1 X113.579 Y119.714 E.03547
G1 X112.583 Y120.025 E.03547
G1 X111.56 Y120.234 E.03547
G1 X110.522 Y120.339 E.03547
G1 X109.478 Y120.339 E.03547
G1 X108.44 Y120.234 E.03547
G1 X107.417 Y120.025 E.03547
G1 X106.421 Y119.714 E.03547
G1 X105.461 Y119.304 E.03547
G1 X104.547 Y118.799 E.03547
G1 X103.689 Y118.206 E.03547
G1 X102.894 Y117.528 E.03547
G1 X102.182 Y116.784 E.03502
G1 X101.672 Y116.133 E.02812
M106 S0
G1 X101.23 Y116.245 F9000
M106 S0
;TYPE:Outer wall
G1 F1800
M106 S0
G1 X101.23 Y103.755 E.42451
G1 X101.857 Y102.952 E.03461
G1 X102.608 Y102.168 E.0369
G1 X103.424 Y101.472 E.03644
G1 X104.327 Y100.845 E.03737
G1 X105.278 Y100.321 E.0369
G1 X106.276 Y99.894 E.0369
G1 X107.313 Y99.571 E.0369
G1 X108.377 Y99.353 E.03691
G1 X109.457 Y99.244 E.0369
G1 X110.543 Y99.244 E.0369
G1 X111.623 Y99.353 E.0369
G1 X112.687 Y99.571 E.03691
G1 X113.724 Y99.894 E.0369
G1 X114.722 Y100.321 E.0369
G1 X115.673 Y100.846 E.03691
G1 X116.566 Y101.463 E.0369
G1 X117.392 Y102.168 E.03691
G1 X118.143 Y102.952 E.0369
G1 X118.77 Y103.755 E.03461
G1 X118.77 Y116.245 E.42452
G1 X118.143 Y117.048 E.03461
G1 X117.392 Y117.832 E.0369
G1 X116.566 Y118.537 E.03691
G1 X115.673 Y119.154 E.0369
G1 X114.722 Y119.679 E.0369
G1 X113.724 Y120.106 E.0369
G1 X112.687 Y120.429 E.0369
G1 X111.623 Y120.647 E.03691
G1 X110.543 Y120.756 E.0369
G1 X109.457 Y120.756 E.0369
G1 X108.377 Y120.647 E.0369
G1 X107.313 Y120.429 E.03691
G1 X106.276 Y120.106 E.0369
G1 X105.278 Y119.679 E.0369
G1 X104.327 Y119.154 E.03691
G1 X103.434 Y118.537 E.0369
G1 X102.608 Y117.832 E.03691
G1 X101.866 Y117.058 E.03644
G1 X101.255 Y116.277 E.03372
M106 S0
G1 E-.84
M106 S0
;WIPE_START
M106 S0
G1 X101.253 Y115.277 E-.36
M106 S0
;WIPE_END
G1 Z.6 F9000
M106 S0
G1 X115.055 Y110.906 Z.6
M106 S0
G1 Z.2
M106 S0
G1 E1.2 F1800
M106 S0
;TYPE:Inner wall
M106 S0
G1 X114.909 Y111.543 E.02223
G1 X114.613 Y112.276 E.02687
G1 X114.193 Y112.983 E.02794
G1 X113.77 Y113.49 E.02243
G1 X113.064 Y114.134 E.03248
G1 X112.387 Y114.558 E.02714
G1 X111.676 Y114.862 E.02629
G1 X110.853 Y115.074 E.02888
G1 X110.186 Y115.134 E.02278
G1 X109.244 Y115.09 E.03206
G1 X108.677 Y114.961 E.01974
G1 X108.319 Y114.86 E.01264
G1 X107.716 Y114.61 E.02219
G1 X107.281 Y114.353 E.01717
G1 X106.936 Y114.134 E.0139
G1 X106.392 Y113.669 E.02431
G1 X105.866 Y113.064 E.02725
G1 X105.43 Y112.362 E.0281
G1 X105.122 Y111.636 E.02679
G1 X104.927 Y110.859 E.02722
G1 X104.855 Y110.05 E.02763
G1 X104.91 Y109.244 E.02746
M73 P3 R9
G1 X105.091 Y108.457 E.02744
G1 X105.387 Y107.724 E.02686
G1 X105.807 Y107.017 E.02794
G1 X106.23 Y106.51 E.02243
G1 X106.936 Y105.866 E.03248
G1 X107.62 Y105.438 E.02744
G1 X108.319 Y105.14 E.02582
G1 X109.147 Y104.926 E.02905
G1 X109.814 Y104.866 E.02278
G1 X110.755 Y104.91 E.03202
G1 X111.323 Y105.039 E.01978
G1 X111.681 Y105.14 E.01264
G1 X112.292 Y105.393 E.02249
G1 X112.985 Y105.809 E.02744
G1 X113.604 Y106.327 E.02744
G1 X114.134 Y106.936 E.02744
G1 X114.57 Y107.638 E.02808
G1 X114.878 Y108.364 E.02681
G1 X115.073 Y109.141 E.02722
G1 X115.145 Y109.95 E.02763
G1 X115.09 Y110.756 E.02746
G1 X115.064 Y110.867 E.00384
M106 S0
G1 X114.653 Y110.813 F9000
M106 S0
;TYPE:Outer wall
G1 F1800
M106 S0
G1 X114.503 Y111.446 E.02209
G1 X114.228 Y112.117 E.02465
G1 X113.836 Y112.766 E.02577
G1 X113.453 Y113.219 E.02017
G1 X112.793 Y113.817 E.03026
G1 X112.169 Y114.202 E.02492
G1 X111.516 Y114.477 E.0241
G1 X110.756 Y114.669 E.02663
G1 X110.153 Y114.719 E.02056
G1 X109.276 Y114.674 E.02984
G1 X108.479 Y114.475 E.02793
G1 X107.874 Y114.224 E.02227
G1 X107.234 Y113.836 E.02543
G1 X106.667 Y113.356 E.02524
G1 X106.183 Y112.793 E.02522
G1 X105.786 Y112.145 E.02583
G1 X105.507 Y111.477 E.02462
G1 X105.332 Y110.762 E.02501
G1 X105.271 Y110.017 E.02542
G1 X105.326 Y109.276 E.02523
G1 X105.497 Y108.554 E.02522
G1 X105.772 Y107.883 E.02464
G1 X106.164 Y107.234 E.02577
G1 X106.547 Y106.781 E.02017
G1 X107.207 Y106.183 E.03026
G1 X107.838 Y105.793 E.02522
G1 X108.479 Y105.525 E.0236
G1 X109.244 Y105.331 E.02683
G1 X109.847 Y105.281 E.02056
G1 X110.723 Y105.326 E.02982
G1 X111.521 Y105.525 E.02795
G1 X112.135 Y105.779 E.02257
G1 X112.767 Y106.164 E.02515
G1 X113.333 Y106.644 E.02522
G1 X113.817 Y107.207 E.02522
G1 X114.213 Y107.855 E.02581
G1 X114.493 Y108.523 E.02464
G1 X114.668 Y109.238 E.02501
G1 X114.729 Y109.983 E.02542
G1 X114.674 Y110.724 E.02523
G1 X114.662 Y110.774 E.00177
M106 S0
G1 E-.84
M106 S0
;WIPE_START
M106 S0
G1 X114.503 Y111.446 E-.2484
M106 S0
G1 X114.385 Y111.733 E-.1116
M106 S0
;WIPE_END
G1 Z.6 F9000
M106 S0
G1 X118.186 Y104.059
M106 S0
G1 Z.6
M106 S0
G1 Z.2
M106 S0
G1 E1.2 F1800
M106 S0
;TYPE:Bottom surface
;WIDTH:0.467989
G1 F4800
M106 S0
G1 X116.825 Y102.698 E.06668
G1 X116.095 Y102.076 E.03322
G1 X115.266 Y101.502 E.03491
G1 X114.734 Y101.209 E.02103
G1 X117.998 Y104.473 E.15989
G1 X117.998 Y105.074 E.02082
G1 X113.609 Y100.684 E.21502
G1 X113.457 Y100.619 E.00574
G1 X112.71 Y100.386 E.02711
G1 X117.998 Y105.675 E.25908
G1 X117.998 Y106.276 E.02082
G1 X111.925 Y100.203 E.29752
G1 X111.507 Y100.117 E.01477
G1 X111.208 Y100.087 E.01041
G1 X117.998 Y106.877 E.33264
G1 X117.998 Y107.479 E.02082
G1 X110.539 Y100.019 E.3654
G1 X109.934 Y100.016 E.02095
G1 X117.998 Y108.08 E.39502
G1 X117.998 Y108.681 E.02082
G1 X109.348 Y100.031 E.42373
G1 X108.802 Y100.086 E.019
G1 X117.998 Y109.282 E.45047
G1 X117.998 Y109.883 E.02082
G1 X108.277 Y100.161 E.47622
G1 X107.778 Y100.263 E.01764
G1 X112.786 Y105.272 E.24532
G1 X113.179 Y105.512 E.01597
G1 X113.903 Y106.122 E.03281
G1 X114.49 Y106.824 E.03167
G1 X114.725 Y107.211 E.0157
G1 X117.998 Y110.484 E.16033
G1 X117.998 Y111.085 E.02082
G1 X115.23 Y108.317 E.13561
G1 X115.424 Y109.112 E.02836
G1 X117.998 Y111.687 E.1261
G1 X117.998 Y112.288 E.02082
M73 P4 R9
G1 X115.482 Y109.771 E.12326
G1 X115.502 Y109.999 E.00793
G1 X115.473 Y110.363 E.01265
G1 X117.998 Y112.889 E.12371
G1 X117.998 Y113.49 E.02082
G1 X115.422 Y110.914 E.12619
G1 X115.302 Y111.395 E.01717
G1 X117.998 Y114.091 E.13209
G1 X117.998 Y114.692 E.02082
G1 X115.168 Y111.861 E.13867
G1 X114.987 Y112.282 E.01586
G1 X117.998 Y115.293 E.14749
G1 X117.998 Y115.894 E.02082
G1 X114.789 Y112.685 E.15723
G1 X114.561 Y113.059 E.01515
G1 X117.772 Y116.269 E.15729
G1 X117.503 Y116.601 E.0148
G1 X114.302 Y113.401 E.15678
G1 X114.029 Y113.728 E.01478
G1 X117.209 Y116.908 E.15578
G1 X116.915 Y117.215 E.01473
G1 X113.726 Y114.027 E.15618
G1 X113.4 Y114.302 E.01478
G1 X116.596 Y117.497 E.15653
G1 X116.271 Y117.774 E.01477
G1 X113.059 Y114.562 E.15736
G1 X112.686 Y114.79 E.01515
G1 X115.933 Y118.037 E.15905
G1 X115.577 Y118.282 E.01497
G1 X112.284 Y114.989 E.16133
G1 X111.862 Y115.168 E.01588
G1 X115.218 Y118.524 E.16441
G1 X114.831 Y118.738 E.01532
G1 X111.394 Y115.301 E.16836
G1 X110.912 Y115.421 E.01719
G1 X114.443 Y118.952 E.17298
G1 X114.384 Y118.985 E.00236
G1 X114.027 Y119.137 E.01342
G1 X110.364 Y115.474 E.17944
G1 X109.999 Y115.502 E.01267
G1 X109.771 Y115.482 E.00792
G1 X113.606 Y119.317 E.18783
G1 X113.161 Y119.473 E.01634
G1 X109.113 Y115.425 E.1983
G1 X108.327 Y115.24 E.02796
G1 X112.853 Y119.766 E.22169
M106 S0
G1 E-.84 F1800
M106 S0
;WIPE_START
G1 F4800
M106 S0
G1 X112.145 Y119.059 E-.36
M106 S0
;WIPE_END
G1 Z.6 F9000
M106 S0
G1 X112.012 Y105.099 Z.6
M106 S0
G1 Z.2
M106 S0
G1 E1.2 F1800
M106 S0
G1 F4800
M106 S0
G1 X107.297 Y100.384 E.23096
G1 X106.839 Y100.527 E.01662
G1 X110.884 Y104.573 E.19816
G1 X110.233 Y104.522 E.02264
G1 X106.394 Y100.683 E.18804
G1 X105.973 Y100.863 E.01587
G1 X109.634 Y104.525 E.17937
G1 X109.087 Y104.579 E.01904
G1 X105.557 Y101.048 E.17295
M73 P5 R9
G1 X105.169 Y101.262 E.01532
G1 X108.601 Y104.693 E.16809
G1 X108.364 Y104.749 E.00842
G1 X108.144 Y104.837 E.00822
G1 X104.782 Y101.476 E.16466
G1 X104.423 Y101.718 E.015
G1 X107.714 Y105.009 E.16122
G1 X107.555 Y105.073 E.00595
G1 X107.319 Y105.215 E.00954
G1 X104.068 Y101.964 E.15923
G1 X103.895 Y102.084 E.0073
G1 X103.729 Y102.226 E.00757
G1 X106.943 Y105.44 E.15746
G1 X106.781 Y105.538 E.00654
G1 X106.597 Y105.695 E.0084
G1 X103.404 Y102.503 E.15639
G1 X103.138 Y102.73 E.01212
G1 X103.085 Y102.785 E.00264
G1 X106.273 Y105.972 E.15613
G1 X106.096 Y106.123 E.00803
G1 X105.971 Y106.272 E.00674
G1 X102.791 Y103.092 E.15578
G1 X102.497 Y103.399 E.01473
G1 X105.698 Y106.599 E.15678
G1 X105.51 Y106.824 E.01013
G1 X105.439 Y106.942 E.00477
G1 X102.228 Y103.731 E.15729
G1 X102.002 Y104.02 E.01273
G1 X102.002 Y104.106 E.00296
G1 X105.211 Y107.315 E.15723
G1 X105.122 Y107.463 E.00597
G1 X105.013 Y107.718 E.00961
G1 X102.002 Y104.707 E.14749
G1 X102.002 Y105.308 E.02082
G1 X104.832 Y108.139 E.13867
G1 X104.79 Y108.237 E.0037
G1 X104.697 Y108.605 E.01314
G1 X102.002 Y105.909 E.13205
G1 X102.002 Y106.51 E.02082
G1 X104.578 Y109.086 E.12618
G1 X104.529 Y109.639 E.01922
G1 X102.002 Y107.111 E.12382
G1 X102.002 Y107.712 E.02082
G1 X104.516 Y110.227 E.12318
G1 X104.569 Y110.881 E.02273
G1 X102.002 Y108.314 E.12577
G1 X102.002 Y108.915 E.02082
G1 X105.103 Y112.016 E.1519
M106 S0
G1 E-.84 F1800
M106 S0
;WIPE_START
G1 F4800
M106 S0
G1 X104.396 Y111.309 E-.36
M106 S0
;WIPE_END
G1 Z.6 F9000
M106 S0
G1 X101.814 Y109.328 Z.6
M106 S0
G1 Z.2
M106 S0
G1 E1.2 F1800
M106 S0
G1 F4800
M106 S0
G1 X105.275 Y112.789 E.16954
G1 X105.51 Y113.176 E.01568
G1 X106.096 Y113.877 E.03165
G1 X106.782 Y114.463 E.03125
G1 X107.195 Y114.71 E.01666
G1 X112.222 Y119.737 E.24625
G1 X111.723 Y119.839 E.01764
G1 X102.002 Y110.117 E.47622
G1 X102.002 Y110.718 E.02082
G1 X111.198 Y119.914 E.45047
G1 X110.652 Y119.969 E.019
G1 X102.002 Y111.319 E.42373
G1 X102.002 Y111.92 E.02082
G1 X110.066 Y119.984 E.39502
G1 X109.461 Y119.981 E.02095
M73 P6 R9
G1 X102.002 Y112.522 E.3654
G1 X102.002 Y113.123 E.02082
G1 X108.792 Y119.913 E.33263
G1 X108.493 Y119.883 E.0104
G1 X108.075 Y119.797 E.01478
G1 X102.002 Y113.724 E.29752
G1 X102.002 Y114.325 E.02082
G1 X107.29 Y119.614 E.25907
G1 X106.544 Y119.381 E.0271
G1 X106.391 Y119.315 E.00575
G1 X102.002 Y114.926 E.21501
G1 X102.002 Y115.527 E.02082
G1 X105.265 Y118.791 E.15988
G1 X104.734 Y118.498 E.02102
G1 X103.905 Y117.924 E.03491
G1 X103.175 Y117.301 E.03325
G1 X101.814 Y115.941 E.06665
M106 S0
G1 E-.84 F1800
M106 S0
;WIPE_START
G1 F4800
M106 S0
G1 X102.521 Y116.648 E-.36
M106 S0
;WIPE_END
G1 Z.6 F9000
M106 S0
G1 X106.055 Y119.309 Z.6
M106 S0
G1 Z.2
M106 S0
G1 E1.2 F1800
M106 S0
;TYPE:Gap infill
;WIDTH:0.117469
M106 S0
G1 X105.943 Y119.233 E.00082
M106 S0
;WIDTH:0.166467
M106 S0
G1 X105.831 Y119.157 E.00136
M106 S0
;WIDTH:0.215465
M106 S0
G1 X105.719 Y119.081 E.0019
M106 S0
;WIDTH:0.264463
M106 S0
G1 X105.606 Y119.006 E.00244
M106 S0
;WIDTH:0.288963
M106 S0
G1 X105.455 Y118.892 E.00379
M106 S0
G1 E-1.0111
M106 S0
;WIPE_START
M106 S0
G1 X105.606 Y119.006 E-.1889
M106 S0
;WIPE_END
G1 Z.6 F9000
M106 S0
G1 X115.146 Y108.12 Z.6
M106 S0
G1 Z.2
M106 S0
G1 E1.2 F1800
M106 S0
;WIDTH:0.244905
M106 S0
G1 X115.062 Y107.997 E.00245
M106 S0
;WIDTH:0.201495
M106 S0
G1 X114.979 Y107.874 E.00192
M106 S0
;WIDTH:0.158085
M106 S0
G1 X114.895 Y107.75 E.0014
M106 S0
;WIDTH:0.13638
M106 S0
G1 X114.812 Y107.627 E.00113
M106 S0
G1 E-1.05103
M106 S0
;WIPE_START
M106 S0
G1 X114.895 Y107.75 E-.14897
M106 S0
;WIPE_END
G1 Z.6 F9000
M106 S0
G1 X112.366 Y105.181 Z.6
M106 S0
G1 Z.2
M106 S0
G1 E1.2 F1800
M106 S0
;WIDTH:0.114144
M106 S0
G1 X112.236 Y105.094 E.00091
M106 S0
;WIDTH:0.135318
M106 S0
G1 X112.105 Y105.006 E.00118
M106 S0
G1 E-1.04284
M106 S0
;WIPE_START
M106 S0
G1 X112.236 Y105.094 E-.15716
M106 S0
;WIPE_END
G1 Z.6 F9000
M106 S0
G1 X105.188 Y112.373 Z.6
M106 S0
G1 Z.2
M106 S0
G1 E1.2 F1800
M106 S0
;WIDTH:0.111488
M106 S0
G1 X105.126 Y112.282 E.00062
M106 S0
;WIDTH:0.147464
M106 S0
G1 X105.009 Y112.109 E.00178
M106 S0
G1 E-.99127
M106 S0
;WIPE_START
M106 S0
G1 X105.126 Y112.282 E-.20873
M106 S0
;WIPE_END
G1 Z.6 F9000
M106 S0
G1 X114.544 Y101.108 Z.6
M106 S0
G1 Z.2
M106 S0
G1 E1.2 F1800
M106 S0
;WIDTH:0.29709
M106 S0
G1 X114.394 Y100.995 E.00391
M106 S0
;WIDTH:0.264522
M106 S0
G1 X114.281 Y100.919 E.00244
M106 S0
;WIDTH:0.215507
M106 S0
G1 X114.169 Y100.843 E.0019
M106 S0
;WIDTH:0.166492
M106 S0
G1 X114.057 Y100.767 E.00136
M106 S0
;WIDTH:0.141985
M106 S0
G1 X113.945 Y100.691 E.00109
M106 S0
; stop printing object reaction-wheel-adapter-v2.STL id:19140616248623182 copy 0
;TIME_ELAPSED:39.763359

M106 S255
;LAYER_CHANGE
;Z:0.4
;HEIGHT:0.2
;BEFORE_LAYER_CHANGE
;0.4
G92 E0
M106 S255

G1 E-1.06462 F1800
M106 S255
;WIPE_START
M106 S255
G1 X114.057 Y100.767 E-.13538
M106 S255
;WIPE_END
;_SET_FAN_SPEED_CHANGING_LAYER
M204 P2500
; printing object reaction-wheel-adapter-v2.STL id:19140616248623182 copy 0
M204 T2500
G1 Z.6 F9000
M106 S255
G1 X101.602 Y116.117 Z.6
M106 S255
G1 Z.4
M106 S255
G1 E1.2 F1800
M106 S255
M204 P2000
M205 X10 Y10
;TYPE:Inner wall
;WIDTH:0.449999
G1 F5400
M106 S255
G1 X101.602 Y103.883 E.40584
G1 X102.138 Y103.196 E.02891
G1 X102.864 Y102.439 E.03477
G1 X103.661 Y101.759 E.03477
G1 X104.523 Y101.162 E.03477
G1 X105.441 Y100.656 E.03477
G1 X106.405 Y100.244 E.03477
G1 X107.406 Y99.932 E.03477
G1 X108.433 Y99.722 E.03477
G1 X109.476 Y99.616 E.03477
G1 X110.524 Y99.616 E.03477
G1 X111.567 Y99.722 E.03477
G1 X112.594 Y99.932 E.03477
G1 X113.595 Y100.244 E.03477
G1 X114.559 Y100.656 E.03477
G1 X115.477 Y101.162 E.03477
G1 X116.339 Y101.759 E.03477
G1 X117.136 Y102.439 E.03477
G1 X117.862 Y103.196 E.03477
G1 X118.398 Y103.883 E.02891
G1 X118.398 Y116.117 E.40584
