; HEADER_BLOCK_START
; generated by Creality_Print V5.1.0.9484 on 2024-07-08 at 18:19:45
; total layer number: 40
; filament_density: 1.24
; filament_diameter: 1.75
; max_z_height: 8.00
; HEADER_BLOCK_END

; MINX = 101.50
; MINY = 99.13
; MINZ = 0.00
; MAXX = 118.50
; MAXY = 121.13
; MAXZ = 8.00

; THUMBNAIL_BLOCK_START

;
; THUMBNAIL_BLOCK_END

; THUMBNAIL_BLOCK_START

;
; THUMBNAIL_BLOCK_END

; external perimeters extrusion width = 0.42mm
; perimeters extrusion width = 0.45mm
; infill extrusion width = 0.45mm
; solid infill extrusion width = 0.42mm
; top infill extrusion width = 0.42mm
; first layer extrusion width = 0.46mm

; EXECUTABLE_BLOCK_START
M73 P0 R9
M201 X5000 Y5000 Z500 E5000
M203 X500 Y500 Z30 E100
M204 P5000 R2500 T5000 ; sets acceleration (P, T) and retract acceleration (R), mm/sec^2
M205 X10.00 Y10.00 Z0.40 E5.00 ; sets the jerk limits, mm/sec
;TYPE:Custom
M220 S100 ;Reset Feedrate 
M221 S100 ;Reset Flowrate 
 
M140 S60 ;Set final bed temp 
G28 ;Home 
 
G92 E0 ;Reset Extruder 
G1 Z2.0 F3000 ;Move Z Axis up 
M104 S220 ;Set final nozzle temp 
G1 X-2.1 Y20 Z0.28 F5000.0 ;Move to start position 
M190 S60 ;Wait for bed temp to stabilize 
M109 S220 ;Wait for nozzle temp to stabilize 
G1 X-2.1 Y145.0 Z0.28 F1500.0 E15 ;Draw the first line 
G1 X-2.4 Y145.0 Z0.28 F5000.0 ;Move to side a little 
G1 X-2.4 Y20 Z0.28 F1500.0 E30 ;Draw the second line 
G92 E0  ;Reset Extruder 
G1 E-1.0000 F1800 ;Retract a bit 
M73 P1 R9
G1 Z2.0 F3000 ;Move Z Axis up 
G1 E0.0000 F1800
G90
G21
M83 ; use relative distances for extrusion
; filament start gcode
M106 S0
;LAYER_CHANGE
;Z:0.2
;HEIGHT:0.2
;BEFORE_LAYER_CHANGE
;0.2
G92 E0
M106 P2 S178
M106 S0

G1 E-1.2 F1800
M106 S0
;_SET_FAN_SPEED_CHANGING_LAYER
M204 P500
M205 X8 Y8
; printing object reaction-wheel-adapter-v2.STL id:18405770171595517555 copy 0
M204 T500
G1 Z.4 F9000
M106 S0
G1 X102.151 Y116.864
M106 S0
G1 Z.4
M106 S0
M73 P2 R9
G1 Z.2
M106 S0
G1 E1.2 F1800
M106 S0
;TYPE:Inner wall
;WIDTH:0.459999
M106 S0
G1 X102.151 Y103.399 E.45762
G1 X102.687 Y102.809 E.0271
G1 X103.439 Y102.127 E.03451
G1 X104.255 Y101.522 E.03451
G1 X105.126 Y101.001 E.03451
G1 X106.044 Y100.567 E.03451
G1 X107 Y100.225 E.03451
G1 X107.985 Y99.978 E.03451
G1 X108.99 Y99.829 E.03451
G1 X110.004 Y99.779 E.03451
G1 X111.005 Y99.829 E.03407
G1 X112.023 Y99.978 E.03497
G1 X113.007 Y100.225 E.0345
G1 X113.964 Y100.567 E.03451
G1 X114.882 Y101.001 E.03451
G1 X115.753 Y101.522 E.03451
G1 X116.568 Y102.127 E.03451
G1 X117.321 Y102.809 E.03451
G1 X117.857 Y103.399 E.0271
G1 X117.857 Y116.864 E.45762
G1 X117.321 Y117.455 E.0271
G1 X116.568 Y118.136 E.03451
G1 X115.763 Y118.733 E.03406
G1 X114.881 Y119.263 E.03497
G1 X113.964 Y119.696 E.0345
G1 X113.007 Y120.038 E.03451
G1 X112.022 Y120.285 E.03451
G1 X111.018 Y120.434 E.03451
G1 X110.017 Y120.483 E.03407
G1 X108.989 Y120.434 E.03497
G1 X107.985 Y120.285 E.0345
G1 X107 Y120.038 E.03451
G1 X106.044 Y119.696 E.03451
G1 X105.126 Y119.263 E.03451
G1 X104.255 Y118.741 E.03451
G1 X103.439 Y118.136 E.03451
G1 X102.687 Y117.455 E.03451
G1 X102.178 Y116.894 E.02574
M106 S0
G1 X101.734 Y117.025 F9000
M106 S0
;TYPE:Outer wall
G1 F1800
M106 S0
G1 X101.734 Y103.238 E.46856
G1 X102.392 Y102.513 E.03327
G1 X103.174 Y101.804 E.0359
G1 X104.023 Y101.175 E.0359
G1 X104.929 Y100.632 E.0359
G1 X105.884 Y100.181 E.0359
G1 X106.879 Y99.825 E.0359
G1 X107.904 Y99.569 E.0359
G1 X108.949 Y99.414 E.0359
G1 X110.004 Y99.362 E.0359
G1 X111.046 Y99.413 E.03545
G1 X112.104 Y99.569 E.03636
G1 X113.129 Y99.825 E.0359
G1 X114.123 Y100.181 E.0359
G1 X115.078 Y100.632 E.0359
G1 X115.984 Y101.175 E.0359
G1 X116.833 Y101.804 E.0359
G1 X117.616 Y102.513 E.0359
G1 X118.274 Y103.238 E.03327
G1 X118.274 Y117.025 E.46856
G1 X117.616 Y117.75 E.03327
G1 X116.833 Y118.459 E.0359
G1 X115.995 Y119.08 E.03545
G1 X115.078 Y119.631 E.03636
G1 X114.123 Y120.082 E.0359
G1 X113.129 Y120.438 E.0359
G1 X112.104 Y120.695 E.0359
G1 X111.059 Y120.849 E.0359
G1 X110.017 Y120.901 E.03545
G1 X108.949 Y120.849 E.03636
G1 X107.904 Y120.695 E.0359
G1 X106.879 Y120.438 E.0359
G1 X105.884 Y120.082 E.0359
G1 X104.929 Y119.631 E.0359
G1 X104.023 Y119.088 E.0359
G1 X103.174 Y118.459 E.0359
G1 X102.392 Y117.75 E.0359
G1 X101.761 Y117.055 E.03191
M106 S0
G1 E-.84
M106 S0
;WIPE_START
M106 S0
G1 X101.759 Y116.055 E-.36
M106 S0
;WIPE_END
G1 Z.6 F9000
M106 S0
G1 X114.868 Y108.461 Z.6
M106 S0
G1 Z.2
M106 S0
G1 E1.2 F1800
M106 S0
;TYPE:Inner wall
M106 S0
G1 X114.882 Y108.495 E.00127
G1 X115.077 Y109.272 E.0272
G1 X115.149 Y110.082 E.02764
G1 X115.093 Y110.888 E.02746
G1 X114.912 Y111.675 E.02744
G1 X114.617 Y112.407 E.02684
G1 X114.196 Y113.114 E.02796
G1 X113.677 Y113.735 E.02752
G1 X113.22 Y114.135 E.02064
G1 X112.953 Y114.345 E.01153
G1 X112.386 Y114.692 E.02259
G1 X111.642 Y115.009 E.02751
G1 X110.906 Y115.194 E.02579
G1 X110.053 Y115.277 E.02912
G1 X109.448 Y115.237 E.0206
G1 X109.102 Y115.194 E.01185
G1 X108.455 Y115.039 E.02262
G1 X107.72 Y114.742 E.02694
G1 X107.06 Y114.348 E.02611
G1 X106.44 Y113.839 E.02727
G1 X105.87 Y113.196 E.02921
G1 X105.434 Y112.493 E.02811
G1 X105.125 Y111.768 E.02678
M73 P3 R9
G1 X104.931 Y110.991 E.0272
G1 X104.859 Y110.181 E.02764
G1 X104.914 Y109.375 E.02746
G1 X105.095 Y108.588 E.02744
G1 X105.39 Y107.856 E.02684
G1 X105.811 Y107.149 E.02796
G1 X106.331 Y106.528 E.02752
G1 X106.788 Y106.128 E.02064
G1 X107.064 Y105.912 E.01192
G1 X107.624 Y105.569 E.02231
G1 X108.367 Y105.253 E.02744
G1 X109.102 Y105.069 E.02574
G1 X109.946 Y104.987 E.02882
G1 X110.551 Y105.026 E.02062
G1 X110.908 Y105.069 E.0122
G1 X111.553 Y105.224 E.02256
G1 X112.296 Y105.525 E.02724
G1 X112.943 Y105.912 E.02564
G1 X113.567 Y106.425 E.02744
G1 X114.138 Y107.068 E.02921
G1 X114.574 Y107.77 E.02811
G1 X114.852 Y108.424 E.02416
M106 S0
G1 X114.484 Y108.624 F9000
M106 S0
;TYPE:Outer wall
G1 F1800
M106 S0
G1 X114.497 Y108.655 E.00113
G1 X114.671 Y109.369 E.02499
G1 X114.733 Y110.115 E.02543
G1 X114.678 Y110.855 E.02523
G1 X114.507 Y111.577 E.02522
G1 X114.232 Y112.248 E.02463
G1 X113.84 Y112.898 E.02579
G1 X113.36 Y113.464 E.02525
G1 X112.735 Y113.989 E.02773
G1 X112.171 Y114.334 E.02246
G1 X111.481 Y114.624 E.02544
G1 X110.808 Y114.789 E.02354
G1 X110.02 Y114.861 E.0269
G1 X109.481 Y114.821 E.01839
G1 X109.199 Y114.789 E.00963
G1 X108.556 Y114.634 E.02249
G1 X107.879 Y114.356 E.02485
G1 X107.277 Y113.992 E.02392
G1 X106.711 Y113.521 E.02502
G1 X106.187 Y112.925 E.02699
G1 X105.79 Y112.276 E.02584
G1 X105.511 Y111.608 E.02461
G1 X105.336 Y110.894 E.02499
G1 X105.274 Y110.148 E.02543
G1 X105.33 Y109.408 E.02523
G1 X105.501 Y108.686 E.02522
G1 X105.776 Y108.015 E.02463
G1 X106.168 Y107.366 E.02579
G1 X106.648 Y106.799 E.02525
G1 X107.282 Y106.268 E.02811
G1 X107.844 Y105.924 E.02238
G1 X108.527 Y105.639 E.02515
G1 X109.199 Y105.475 E.02353
G1 X109.979 Y105.403 E.0266
G1 X110.519 Y105.442 E.01842
G1 X110.81 Y105.475 E.00995
G1 X111.452 Y105.629 E.02242
G1 X112.136 Y105.91 E.02516
G1 X112.725 Y106.268 E.02342
G1 X113.297 Y106.742 E.02522
G1 X113.82 Y107.338 E.02699
G1 X114.218 Y107.987 E.02584
G1 X114.469 Y108.587 E.02212
M106 S0
G1 E-.84
M106 S0
;WIPE_START
M106 S0
G1 X114.497 Y108.655 E-.02637
M106 S0
G1 X114.671 Y109.369 E-.26475
M106 S0
G1 X114.687 Y109.56 E-.06888
M106 S0
;WIPE_END
G1 Z.6 F9000
M106 S0
G1 X115.684 Y101.679
M106 S0
G1 Z.6
M106 S0
G1 Z.2
M106 S0
G1 E1.2 F1800
M106 S0
;TYPE:Bottom surface
;WIDTH:0.468169
G1 F4800
M106 S0
G1 X117.124 Y103.119 E.07053
G1 X117.502 Y103.536 E.01952
G1 X117.502 Y104.099 E.0195
G1 X114.722 Y101.318 E.13627
G1 X113.828 Y100.895 E.03427
G1 X113.624 Y100.822 E.00751
G1 X117.502 Y104.7 E.19006
G1 X117.502 Y105.301 E.02084
G1 X112.719 Y100.518 E.23442
G1 X111.921 Y100.322 E.02847
G1 X117.502 Y105.903 E.27352
G1 X117.502 Y106.504 E.02084
G1 X111.216 Y100.218 E.30807
G1 X110.97 Y100.182 E.0086
G1 X110.558 Y100.162 E.0143
G1 X117.502 Y107.106 E.3403
G1 X117.502 Y107.707 E.02084
G1 X109.942 Y100.147 E.37049
G1 X109.363 Y100.169 E.02008
G1 X117.502 Y108.308 E.39886
G1 X117.502 Y108.91 E.02084
G1 X108.807 Y100.215 E.42611
G1 X108.283 Y100.292 E.01835
G1 X117.502 Y109.511 E.45178
G1 X117.502 Y110.113 E.02084
G1 X107.784 Y100.394 E.47627
G1 X107.303 Y100.514 E.01718
G1 X111.691 Y104.903 E.21507
G1 X110.891 Y104.705 E.02856
G1 X106.844 Y100.657 E.19835
G1 X106.401 Y100.816 E.0163
G1 X110.237 Y104.651 E.18798
G1 X109.953 Y104.631 E.00987
M73 P4 R9
G1 X109.643 Y104.659 E.01077
G1 X105.975 Y100.991 E.17974
G1 X105.567 Y101.184 E.01565
G1 X109.092 Y104.709 E.17273
G1 X108.607 Y104.826 E.01726
G1 X105.169 Y101.388 E.16849
G1 X104.793 Y101.613 E.01519
G1 X108.143 Y104.963 E.16417
G1 X107.717 Y105.139 E.01596
G1 X104.42 Y101.841 E.1616
G1 X104.075 Y102.097 E.0149
G1 X107.324 Y105.347 E.15925
G1 X106.949 Y105.573 E.01518
G1 X103.729 Y102.353 E.15779
G1 X103.664 Y102.401 E.00279
G1 X103.408 Y102.634 E.01199
G1 X106.601 Y105.826 E.15646
G1 X106.279 Y106.106 E.01477
G1 X103.092 Y102.919 E.15617
G1 X102.792 Y103.22 E.01474
G1 X105.974 Y106.403 E.15595
G1 X105.701 Y106.731 E.0148
G1 X102.505 Y103.536 E.15658
G1 X102.505 Y104.137 E.02081
G1 X105.442 Y107.073 E.14392
G1 X105.215 Y107.448 E.01517
G1 X102.505 Y104.738 E.13278
G1 X102.505 Y105.339 E.02084
G1 X105.016 Y107.85 E.12304
G1 X104.836 Y108.271 E.01587
G1 X102.505 Y105.941 E.1142
G1 X102.505 Y106.542 E.02084
G1 X104.701 Y108.738 E.10758
G1 X104.581 Y109.219 E.0172
G1 X102.505 Y107.144 E.10173
G1 X102.505 Y107.745 E.02084
G1 X104.533 Y109.773 E.09936
G1 X104.502 Y110.132 E.01249
G1 X104.522 Y110.363 E.00805
G1 X102.505 Y108.346 E.09882
G1 X102.505 Y108.948 E.02084
G1 X104.58 Y111.022 E.10166
G1 X104.772 Y111.816 E.0283
G1 X102.318 Y109.362 E.12028
M106 S0
G1 E-.84 F1800
M106 S0
;WIPE_START
G1 F4800
M106 S0
G1 X103.025 Y110.069 E-.36
M106 S0
;WIPE_END
G1 Z.6 F9000
M106 S0
G1 X114.899 Y108.111 Z.6
M106 S0
G1 Z.2
M106 S0
G1 E1.2 F1800
M106 S0
G1 F4800
M106 S0
G1 X117.502 Y110.714 E.12758
G1 X117.502 Y111.315 E.02084
G1 X115.428 Y109.241 E.10166
G1 X115.486 Y109.9 E.02294
G1 X117.502 Y111.917 E.09882
G1 X117.502 Y112.518 E.02084
G1 X115.477 Y110.493 E.09925
G1 X115.427 Y111.044 E.01917
G1 X117.502 Y113.12 E.10172
G1 X117.502 Y113.721 E.02084
G1 X115.306 Y111.525 E.10762
G1 X115.214 Y111.895 E.01321
G1 X115.172 Y111.992 E.00367
G1 X117.502 Y114.322 E.1142
G1 X117.502 Y114.924 E.02084
G1 X114.992 Y112.413 E.12304
G1 X114.882 Y112.668 E.00962
G1 X114.793 Y112.816 E.00598
G1 X117.502 Y115.525 E.13278
G1 X117.502 Y116.127 E.02084
M73 P5 R9
G1 X114.565 Y113.19 E.14392
G1 X114.494 Y113.308 E.00478
G1 X114.307 Y113.532 E.01014
G1 X117.502 Y116.728 E.15658
G1 X117.216 Y117.043 E.01475
G1 X114.034 Y113.861 E.15595
G1 X113.94 Y113.973 E.00506
G1 X113.728 Y114.157 E.00972
G1 X116.915 Y117.344 E.15617
G1 X116.6 Y117.63 E.01475
G1 X113.407 Y114.437 E.15646
G1 X113.244 Y114.578 E.00746
G1 X113.059 Y114.69 E.00751
G1 X116.278 Y117.91 E.15778
G1 X115.933 Y118.166 E.0149
G1 X112.683 Y114.916 E.15925
G1 X112.451 Y115.056 E.00941
G1 X112.289 Y115.123 E.00606
G1 X115.588 Y118.422 E.16164
G1 X115.214 Y118.649 E.01517
G1 X111.864 Y115.3 E.16415
G1 X111.728 Y115.356 E.00512
G1 X111.4 Y115.437 E.01169
G1 X114.838 Y118.875 E.16848
G1 X114.441 Y119.079 E.01548
G1 X110.916 Y115.554 E.17273
G1 X110.363 Y115.603 E.01924
G1 X114.032 Y119.272 E.17982
G1 X113.607 Y119.448 E.01596
G1 X109.775 Y115.616 E.18779
G1 X109.116 Y115.559 E.0229
G1 X113.164 Y119.606 E.19835
G1 X112.705 Y119.749 E.01665
G1 X107.99 Y115.034 E.23107
M106 S0
G1 E-.84 F1800
M106 S0
;WIPE_START
G1 F4800
M106 S0
G1 X108.697 Y115.741 E-.36
M106 S0
;WIPE_END
G1 Z.6 F9000
M106 S0
G1 X112.379 Y120.024 Z.6
M106 S0
G1 Z.2
M106 S0
G1 E1.2 F1800
M106 S0
G1 F4800
M106 S0
G1 X102.505 Y110.151 E.48385
G1 X102.505 Y110.752 E.02084
G1 X111.724 Y119.971 E.45178
G1 X111.2 Y120.048 E.01835
G1 X102.505 Y111.353 E.42611
G1 X102.505 Y111.955 E.02084
G1 X110.648 Y120.097 E.39902
G1 X110.075 Y120.125 E.01989
G1 X102.505 Y112.556 E.37093
G1 X102.505 Y113.158 E.02084
G1 X109.449 Y120.101 E.34026
G1 X109.024 Y120.081 E.01474
G1 X108.793 Y120.046 E.00809
G1 X102.505 Y113.759 E.30812
G1 X102.505 Y114.36 E.02084
G1 X108.087 Y119.942 E.27352
G1 X107.289 Y119.745 E.02847
M73 P6 R9
G1 X102.505 Y114.962 E.23442
G1 X102.505 Y115.563 E.02084
G1 X106.384 Y119.441 E.19006
G1 X106.18 Y119.369 E.0075
G1 X105.286 Y118.945 E.03428
G1 X102.505 Y116.165 E.13626
G1 X102.505 Y116.727 E.01949
G1 X102.885 Y117.146 E.01958
G1 X104.323 Y118.583 E.07046
M106 S0
G1 E-.84 F1800
M106 S0
;WIPE_START
G1 F4800
M106 S0
G1 X103.616 Y117.876 E-.36
M106 S0
;WIPE_END
G1 Z.6 F9000
M106 S0
G1 X107.896 Y115.127 Z.6
M106 S0
G1 Z.2
M106 S0
G1 E1.2 F1800
M106 S0
;TYPE:Gap infill
;WIDTH:0.156155
M106 S0
G1 X107.767 Y115.041 E.00143
M106 S0
;WIDTH:0.135093
M106 S0
G1 X107.639 Y114.954 E.00116
M106 S0
G1 X108.914 Y115.484 F9000
M106 S0
;WIDTH:0.235962
G1 F1800
M106 S0
G1 X108.576 Y115.293 E.00611
M106 S0
G1 E-.84
M106 S0
;WIPE_START
M106 S0
G1 X108.914 Y115.484 E-.36
M106 S0
;WIPE_END
G1 Z.6 F9000
M106 S0
G1 X112.383 Y105.323 Z.6
M106 S0
G1 Z.2
M106 S0
G1 E1.2 F1800
M106 S0
;WIDTH:0.114725
M106 S0
G1 X112.259 Y105.239 E.00087
M106 S0
;WIDTH:0.158237
M106 S0
G1 X112.135 Y105.155 E.0014
M106 S0
;WIDTH:0.201749
M106 S0
G1 X112.012 Y105.071 E.00193
M106 S0
;WIDTH:0.223505
M106 S0
G1 X111.888 Y104.987 E.0022
M106 S0
G1 E-1.05059
M106 S0
;WIPE_START
M106 S0
G1 X112.012 Y105.071 E-.14941
M106 S0
;WIPE_END
G1 Z.6 F9000
M106 S0
G1 X115.594 Y101.77 Z.6
M106 S0
G1 Z.2
M106 S0
G1 E1.2 F1800
M106 S0
;WIDTH:0.177409
M106 S0
G1 X115.459 Y101.664 E.00188
M106 S0
;WIDTH:0.143633
M106 S0
G1 X115.324 Y101.559 E.00141
M106 S0
;WIDTH:0.126745
M106 S0
G1 X115.188 Y101.453 E.00117
M106 S0
G1 E-1.02843
M106 S0
;WIPE_START
M106 S0
G1 X115.324 Y101.559 E-.17157
M106 S0
;WIPE_END
G1 Z.6 F9000
M106 S0
G1 X104.819 Y118.81 Z.6
M106 S0
G1 Z.2
M106 S0
G1 E1.2 F1800
M106 S0
;WIDTH:0.109865
M106 S0
G1 X104.684 Y118.704 E.00094
M106 S0
;WIDTH:0.143657
M106 S0
G1 X104.548 Y118.599 E.00141
M106 S0
;WIDTH:0.160553
M106 S0
G1 X104.413 Y118.493 E.00165
M106 S0
; stop printing object reaction-wheel-adapter-v2.STL id:18405770171595517555 copy 0
;TIME_ELAPSED:38.436882

M106 S255
;LAYER_CHANGE
;Z:0.4
;HEIGHT:0.2
;BEFORE_LAYER_CHANGE
;0.4
G92 E0
M106 S255

G1 E-1.02836 F1800
M106 S255
;WIPE_START
M106 S255
G1 X104.548 Y118.599 E-.17164
M106 S255
;WIPE_END
;_SET_FAN_SPEED_CHANGING_LAYER
M204 P2500
; printing object reaction-wheel-adapter-v2.STL id:18405770171595517555 copy 0
M204 T2500
G1 Z.6 F9000
M106 S255
G1 X102.106 Y116.881 Z.6
M106 S255
G1 Z.4
M106 S255
G1 E1.2 F1800
M106 S255
M204 P2000
M205 X10 Y10
;TYPE:Inner wall
;WIDTH:0.449999
G1 F5400
M106 S255
G1 X102.106 Y103.382 E.4478
G1 X102.655 Y102.777 E.0271
G1 X103.411 Y102.092 E.03383
G1 X104.23 Y101.485 E.03383
G1 X105.071 Y100.981 E.03252
G1 X106.028 Y100.525 E.03516
G1 X106.987 Y100.182 E.03379
G1 X107.976 Y99.934 E.03383
G1 X108.985 Y99.784 E.03383
G1 X110.004 Y99.734 E.03383
G1 X110.983 Y99.782 E.03252
G1 X112.032 Y99.934 E.03516
G1 X113.02 Y100.182 E.03379
G1 X113.981 Y100.525 E.03383
G1 X114.903 Y100.961 E.03383
G1 X115.778 Y101.485 E.03383
G1 X116.597 Y102.092 E.03383
G1 X117.353 Y102.777 E.03383
G1 X117.902 Y103.382 E.0271
G1 X117.902 Y116.881 E.4478
G1 X117.353 Y117.486 E.0271
G1 X116.597 Y118.171 E.03383
G1 X115.809 Y118.755 E.03252
G1 X114.902 Y119.303 E.03517
G1 X113.981 Y119.738 E.03379
G1 X113.02 Y120.082 E.03383
G1 X112.031 Y120.329 E.03383
G1 X111.022 Y120.479 E.03383
G1 X110.043 Y120.527 E.03252
G1 X108.984 Y120.479 E.03517
G1 X107.976 Y120.329 E.03379
G1 X106.987 Y120.082 E.03383
G1 X106.027 Y119.738 E.03383
G1 X105.105 Y119.302 E.03383
G1 X104.23 Y118.778 E.03383
G1 X103.411 Y118.171 E.03383
G1 X102.655 Y117.486 E.03383
G1 X102.133 Y116.911 E.02577
M106 S255
M205 X8 Y8
G1 X101.715 Y117.034 F9000
M106 S255
M204 P1000
M205 X10 Y10
;TYPE:Outer wall
;WIDTH:0.419999
G1 F3600
M106 S255
G1 X101.714 Y117.033 E.00004
G1 X101.714 Y103.231 E.4241
G1 X102.377 Y102.499 E.03035
G1 X103.162 Y101.789 E.03252
G1 X104.012 Y101.158 E.03252
G1 X104.886 Y100.635 E.03129
G1 X105.877 Y100.162 E.03376
G1 X106.873 Y99.806 E.03251
G1 X107.9 Y99.549 E.03252
