; HEADER_BLOCK_START
; generated by Creality_Print V5.1.0.9484 on 2024-07-04 at 22:52:13
; total layer number: 80
; filament_density: 1.24
; filament_diameter: 1.75
; max_z_height: 16.00
; HEADER_BLOCK_END

; MINX = 89.56
; MINY = 99.30
; MINZ = 0.00
; MAXX = 111.56
; MAXY = 121.30
; MAXZ = 16.00

; THUMBNAIL_BLOCK_START

;
; THUMBNAIL_BLOCK_END

; THUMBNAIL_BLOCK_START

;
; THUMBNAIL_BLOCK_END

; external perimeters extrusion width = 0.42mm
; perimeters extrusion width = 0.45mm
; infill extrusion width = 0.45mm
; solid infill extrusion width = 0.42mm
; top infill extrusion width = 0.42mm
; first layer extrusion width = 0.46mm

; EXECUTABLE_BLOCK_START
M73 P0 R15
M201 X5000 Y5000 Z500 E5000
M203 X500 Y500 Z30 E100
M204 P5000 R2500 T5000 ; sets acceleration (P, T) and retract acceleration (R), mm/sec^2
M205 X10.00 Y10.00 Z0.40 E5.00 ; sets the jerk limits, mm/sec
;TYPE:Custom
M220 S100 ;Reset Feedrate 
M221 S100 ;Reset Flowrate 
 
M140 S60 ;Set final bed temp 
G28 ;Home 
 
G92 E0 ;Reset Extruder 
G1 Z2.0 F3000 ;Move Z Axis up 
M104 S220 ;Set final nozzle temp 
G1 X-2.1 Y20 Z0.28 F5000.0 ;Move to start position 
M190 S60 ;Wait for bed temp to stabilize 
M109 S220 ;Wait for nozzle temp to stabilize 
G1 X-2.1 Y145.0 Z0.28 F1500.0 E15 ;Draw the first line 
G1 X-2.4 Y145.0 Z0.28 F5000.0 ;Move to side a little 
M73 P0 R14
G1 X-2.4 Y20 Z0.28 F1500.0 E30 ;Draw the second line 
G92 E0  ;Reset Extruder 
G1 E-1.0000 F1800 ;Retract a bit 
M73 P1 R14
G1 Z2.0 F3000 ;Move Z Axis up 
G1 E0.0000 F1800
G90
G21
M83 ; use relative distances for extrusion
; filament start gcode
M106 S0
;LAYER_CHANGE
;Z:0.2
;HEIGHT:0.2
;BEFORE_LAYER_CHANGE
;0.2
G92 E0
M106 P2 S178
M106 S0

G1 E-1.2 F1800
M106 S0
;_SET_FAN_SPEED_CHANGING_LAYER
M204 P500
M205 X8 Y8
; printing object reaciton-wheel-adapter.STL id:4294967297 copy 0
M204 T500
G1 Z.4 F9000
M106 S0
G1 X110.72 Y108.317
M106 S0
G1 Z.4
M106 S0
G1 Z.2
M106 S0
G1 E1.2 F1800
M106 S0
;TYPE:Inner wall
;WIDTH:0.459999
M106 S0
G1 X110.803 Y108.916 E.02056
M106 S0
;WIDTH:0.490701
M106 S0
G1 X110.861 Y109.452 E.01965
M106 S0
;WIDTH:0.524137
M106 S0
G1 X110.848 Y109.588 E.00535
M106 S0
;WIDTH:0.557572
M106 S0
G1 X110.835 Y109.723 E.00573
G1 X110.778 Y109.605 E.0055
M106 S0
;WIDTH:0.524137
M106 S0
G1 X110.721 Y109.487 E.00515
M106 S0
;WIDTH:0.490701
M106 S0
G1 X110.469 Y109.02 E.01935
M106 S0
;WIDTH:0.459999
M106 S0
G1 X110.125 Y108.641 E.01739
G1 X109.758 Y108.339 E.01617
G1 X109.089 Y108.059 E.02467
G1 X108.649 Y108.004 E.01507
G1 X108.083 Y108.052 E.01929
G1 X107.866 Y108.111 E.00765
G1 X107.281 Y108.383 E.02194
G1 X106.91 Y108.721 E.01705
G1 X106.65 Y109.02 E.01347
G1 X106.395 Y109.527 E.0193
G1 X106.333 Y109.73 E.00719
G1 X106.26 Y110.293 E.0193
G1 X106.269 Y110.504 E.00719
G1 X106.389 Y111.059 E.0193
G1 X106.597 Y111.465 E.01548
G1 X106.901 Y111.894 E.01787
G1 X107.347 Y112.255 E.01951
G1 X107.532 Y112.358 E.00719
G1 X108.067 Y112.547 E.0193
G1 X108.276 Y112.583 E.00719
G1 X108.844 Y112.583 E.0193
G1 X109.052 Y112.547 E.00719
G1 X109.587 Y112.358 E.0193
G1 X109.772 Y112.255 E.00719
G1 X110.214 Y111.898 E.0193
G1 X110.445 Y111.591 E.01306
M106 S0
;WIDTH:0.507677
M106 S0
G1 X110.561 Y111.429 E.00755
M106 S0
;WIDTH:0.555355
M106 S0
G1 X110.677 Y111.266 E.00832
M106 S0
;WIDTH:0.603032
M106 S0
G1 X110.793 Y111.104 E.0091
G1 X110.8 Y111.311 E.00942
M106 S0
;WIDTH:0.555355
M106 S0
G1 X110.807 Y111.517 E.00862
M106 S0
;WIDTH:0.507677
M106 S0
G1 X110.813 Y111.723 E.00781
M106 S0
;WIDTH:0.459999
M106 S0
G1 X110.595 Y112.842 E.03876
G1 X110.254 Y113.931 E.03876
G1 X109.796 Y114.975 E.03876
G1 X109.226 Y115.963 E.03876
G1 X108.55 Y116.882 E.03876
G1 X107.778 Y117.721 E.03876
G1 X106.918 Y118.47 E.03876
G1 X105.981 Y119.12 E.03876
G1 X104.978 Y119.663 E.03876
G1 X103.921 Y120.092 E.03876
G1 X103.038 Y120.342 E.03118
G1 X102.467 Y120.462 E.01982
G1 X101.635 Y120.594 E.02865
M106 S0
;WIDTH:0.491776
M106 S0
G1 X101.314 Y120.596 E.01174
M106 S0
;WIDTH:0.523552
M106 S0
G1 X100.993 Y120.597 E.01257
G1 X101.061 Y120.571 E.00285
M106 S0
;WIDTH:0.511827
M106 S0
G1 X101.416 Y120.413 E.01488
M106 S0
;WIDTH:0.485913
M106 S0
G1 X101.772 Y120.255 E.01406
M106 S0
;WIDTH:0.459999
M106 S0
G1 X102.324 Y119.783 E.02467
G1 X102.571 Y119.415 E.01507
G1 X102.781 Y118.892 E.01917
G1 X102.827 Y118.682 E.00731
G1 X102.826 Y117.91 E.02623
G1 X102.658 Y117.361 E.01949
G1 X102.563 Y117.173 E.00719
G1 X102.225 Y116.716 E.0193
G1 X102.072 Y116.57 E.00719
G1 X101.602 Y116.252 E.0193
G1 X101.409 Y116.165 E.00719
G1 X100.86 Y116.022 E.0193
G1 X100.649 Y116.004 E.00719
G1 X100.083 Y116.052 E.0193
G1 X99.879 Y116.105 E.00719
G1 X99.286 Y116.379 E.02218
G1 X98.949 Y116.684 E.01545
G1 X98.65 Y117.02 E.0153
G1 X98.396 Y117.524 E.01917
G1 X98.333 Y117.73 E.00731
G1 X98.26 Y118.293 E.0193
G1 X98.269 Y118.504 E.00719
G1 X98.384 Y119.038 E.01855
G1 X98.468 Y119.256 E.00792
G1 X98.766 Y119.739 E.0193
G1 X98.905 Y119.898 E.00719
G1 X99.347 Y120.255 E.0193
G1 X99.532 Y120.358 E.00719
M106 S0
;WIDTH:0.500215
M106 S0
G1 X99.793 Y120.471 E.01061
M106 S0
;WIDTH:0.54043
M106 S0
G1 X100.054 Y120.585 E.01154
G1 X99.737 Y120.588 E.01283
M106 S0
;WIDTH:0.500215
M106 S0
G1 X99.421 Y120.59 E.0118
M106 S0
;WIDTH:0.459999
M106 S0
G1 X98.296 Y120.402 E.03876
G1 X97.198 Y120.092 E.03876
G1 X96.142 Y119.663 E.03876
G1 X95.139 Y119.12 E.03876
G1 X94.201 Y118.47 E.03876
G1 X93.341 Y117.721 E.03876
G1 X92.569 Y116.882 E.03876
G1 X91.893 Y115.963 E.03876
G1 X91.323 Y114.975 E.03876
G1 X90.865 Y113.931 E.03876
G1 X90.524 Y112.842 E.03876
G1 X90.285 Y111.477 E.04709
M106 S0
;WIDTH:0.500957
M106 S0
G1 X90.279 Y111.151 E.0122
M106 S0
;WIDTH:0.541914
M106 S0
G1 X90.272 Y110.824 E.01329
G1 X90.307 Y110.9 E.0034
M106 S0
;WIDTH:0.524507
M106 S0
G1 X90.483 Y111.248 E.01529
M106 S0
;WIDTH:0.492253
M106 S0
G1 X90.659 Y111.595 E.01427
M106 S0
;WIDTH:0.459999
M106 S0
G1 X91.035 Y112.022 E.01931
G1 X91.327 Y112.226 E.01213
G1 X91.894 Y112.502 E.02142
G1 X92.454 Y112.598 E.0193
G1 X92.665 Y112.598 E.00719
G1 X93.225 Y112.502 E.0193
G1 X93.422 Y112.433 E.00708
G1 X93.92 Y112.154 E.01941
G1 X94.085 Y112.022 E.00719
G1 X94.514 Y111.524 E.02236
G1 X94.686 Y111.128 E.01464
G1 X94.827 Y110.682 E.01593
G1 X94.851 Y110.114 E.0193
G1 X94.824 Y109.904 E.00719
G1 X94.658 Y109.361 E.0193
G1 X94.563 Y109.173 E.00719
G1 X94.225 Y108.716 E.0193
G1 X93.869 Y108.432 E.01548
G1 X93.409 Y108.165 E.01808
G1 X92.86 Y108.022 E.0193
G1 X92.426 Y108.023 E.01473
G1 X91.928 Y108.085 E.01707
G1 X91.517 Y108.252 E.01507
G1 X91.047 Y108.57 E.01929
G1 X90.894 Y108.716 E.00718
M106 S0
;WIDTH:0.501149
M106 S0
G1 X90.788 Y108.839 E.00607
M106 S0
;WIDTH:0.542298
M106 S0
G1 X90.682 Y108.962 E.00662
M106 S0
;WIDTH:0.583448
M106 S0
G1 X90.575 Y109.085 E.00716
M106 S0
;WIDTH:0.624597
M106 S0
G1 X90.469 Y109.208 E.00771
M106 S0
;WIDTH:0.665746
M106 S0
G1 X90.363 Y109.331 E.00825
G1 X90.353 Y109.245 E.00443
M106 S0
;WIDTH:0.621709
M106 S0
G1 X90.342 Y109.158 E.00412
M106 S0
;WIDTH:0.577671
M106 S0
G1 X90.332 Y109.071 E.0038
M106 S0
;WIDTH:0.533633
M106 S0
G1 X90.365 Y108.701 E.01486
M106 S0
;WIDTH:0.496816
M106 S0
G1 X90.398 Y108.331 E.01374
M106 S0
;WIDTH:0.459999
M106 S0
G1 X90.68 Y107.21 E.03927
G1 X91.08 Y106.143 E.03875
G1 X91.595 Y105.125 E.03876
G1 X92.218 Y104.17 E.03876
G1 X92.943 Y103.29 E.03876
G1 X93.761 Y102.495 E.03876
G1 X94.661 Y101.794 E.03876
G1 X95.633 Y101.197 E.03876
G1 X96.664 Y100.71 E.03876
G1 X97.743 Y100.34 E.03876
G1 X98.421 Y100.188 E.02361
G1 X99.28 Y100.043 E.02962
M106 S0
;WIDTH:0.495586
M106 S0
G1 X99.502 Y100.037 E.00819
M106 S0
;WIDTH:0.531172
M106 S0
G1 X99.724 Y100.03 E.00884
M106 S0
;WIDTH:0.566758
M106 S0
G1 X99.946 Y100.023 E.00948
G1 X99.862 Y100.068 E.00407
M106 S0
;WIDTH:0.540876
M106 S0
G1 X99.611 Y100.204 E.01155
M106 S0
;WIDTH:0.500438
M106 S0
G1 X99.361 Y100.339 E.01061
M106 S0
;WIDTH:0.459999
M106 S0
G1 X99.087 Y100.552 E.0118
G1 X98.65 Y101.02 E.02177
G1 X98.395 Y101.527 E.0193
G1 X98.302 Y101.972 E.01544
G1 X98.269 Y102.504 E.01812
G1 X98.401 Y103.107 E.02096
G1 X98.699 Y103.631 E.02051
G1 X98.901 Y103.894 E.01124
G1 X99.347 Y104.255 E.01951
G1 X99.532 Y104.358 E.00719
G1 X100.067 Y104.547 E.0193
G1 X100.276 Y104.583 E.00719
G1 X100.844 Y104.583 E.01931
G1 X101.052 Y104.547 E.00719
G1 X101.587 Y104.358 E.01929
G1 X101.772 Y104.255 E.00718
G1 X102.214 Y103.898 E.0193
G1 X102.426 Y103.621 E.01185
G1 X102.717 Y103.111 E.01997
G1 X102.827 Y102.681 E.01507
G1 X102.851 Y102.114 E.01929
G1 X102.824 Y101.904 E.00718
G1 X102.658 Y101.361 E.0193
G1 X102.563 Y101.173 E.00719
G1 X102.225 Y100.716 E.0193
G1 X102.072 Y100.57 E.0072
M106 S0
;WIDTH:0.502184
M106 S0
G1 X101.912 Y100.448 E.00753
M106 S0
;WIDTH:0.544369
M106 S0
G1 X101.751 Y100.326 E.00823
M106 S0
;WIDTH:0.586554
M106 S0
G1 X101.591 Y100.205 E.00892
M106 S0
;WIDTH:0.628738
M106 S0
G1 X101.431 Y100.083 E.00961
G1 X101.514 Y100.075 E.00401
M106 S0
;WIDTH:0.593632
M106 S0
G1 X101.598 Y100.066 E.00377
M106 S0
;WIDTH:0.558525
M106 S0
G1 X101.681 Y100.058 E.00353
M106 S0
;WIDTH:0.523418
M106 S0
G1 X101.972 Y100.074 E.01141
M106 S0
;WIDTH:0.491709
M106 S0
G1 X102.263 Y100.09 E.01066
M106 S0
;WIDTH:0.459999
M106 S0
G1 X103.376 Y100.34 E.03876
G1 X104.455 Y100.71 E.03876
G1 X105.487 Y101.197 E.03876
G1 X106.458 Y101.794 E.03876
G1 X107.358 Y102.495 E.03876
G1 X108.176 Y103.29 E.03876
G1 X108.901 Y104.17 E.03876
G1 X109.525 Y105.125 E.03876
G1 X110.04 Y106.143 E.03876
G1 X110.434 Y107.197 E.03826
G1 X110.71 Y108.278 E.03791
M106 S0
G1 X111.133 Y108.26 F9000
M106 S0
;TYPE:Outer wall
G1 F1800
M106 S0
G1 X111.293 Y109.44 E.04048
G1 X111.325 Y110.598 E.03938
G1 X111.227 Y111.78 E.04033
G1 X111 Y112.945 E.04033
G1 X110.646 Y114.077 E.04033
G1 X110.169 Y115.164 E.04033
G1 X109.576 Y116.192 E.04033
G1 X108.873 Y117.148 E.04033
G1 X108.069 Y118.021 E.04033
G1 X107.174 Y118.8 E.04033
G1 X106.199 Y119.476 E.04033
G1 X105.156 Y120.041 E.04033
G1 X104.057 Y120.487 E.04033
G1 X102.915 Y120.81 E.04033
G1 X101.744 Y121.005 E.04033
G1 X100.56 Y121.071 E.04033
G1 X99.375 Y121.005 E.04033
G1 X98.204 Y120.81 E.04033
G1 X97.063 Y120.487 E.04033
G1 X95.963 Y120.041 E.04033
G1 X94.92 Y119.476 E.04033
G1 X93.945 Y118.8 E.04033
G1 X93.05 Y118.021 E.04033
G1 X92.246 Y117.148 E.04033
G1 X91.544 Y116.192 E.04033
G1 X90.95 Y115.164 E.04033
G1 X90.474 Y114.077 E.04033
G1 X90.12 Y112.945 E.04033
G1 X89.892 Y111.78 E.04033
G1 X89.794 Y110.598 E.04033
G1 X89.827 Y109.412 E.04033
G1 X89.988 Y108.251 E.03982
G1 X90.281 Y107.086 E.04084
G1 X90.697 Y105.975 E.04032
G1 X91.233 Y104.916 E.04033
G1 X91.882 Y103.923 E.04033
G1 X92.636 Y103.007 E.04033
G1 X93.487 Y102.18 E.04033
G1 X94.423 Y101.451 E.04033
G1 X95.434 Y100.829 E.04033
G1 X96.507 Y100.323 E.04033
G1 X97.629 Y99.938 E.04033
G1 X98.787 Y99.678 E.04033
G1 X99.969 Y99.547 E.04043
G1 X100.567 Y99.531 E.02032
G1 X101.15 Y99.547 E.01981
G1 X102.332 Y99.678 E.04044
G1 X103.49 Y99.938 E.04033
G1 X104.612 Y100.323 E.04033
G1 X105.685 Y100.829 E.04033
M73 P2 R14
G1 X106.696 Y101.451 E.04033
G1 X107.633 Y102.18 E.04033
G1 X108.483 Y103.007 E.04033
G1 X109.237 Y103.923 E.04033
G1 X109.886 Y104.916 E.04033
G1 X110.422 Y105.975 E.04033
G1 X110.833 Y107.072 E.03982
G1 X111.125 Y108.22 E.04027
M106 S0
G1 E-.84
M106 S0
;WIPE_START
M106 S0
G1 X111.262 Y109.211 E-.36
M106 S0
;WIPE_END
G1 Z.6 F9000
M106 S0
G1 X108.694 Y108.421 Z.6
M106 S0
G1 Z.2
M106 S0
G1 E1.2 F1800
M106 S0
M106 S0
G1 X109.069 Y108.485 E.01291
G1 X109.586 Y108.719 E.0193
G1 X110.055 Y109.151 E.02167
G1 X110.335 Y109.682 E.02038
G1 X110.445 Y110.346 E.02289
G1 X110.322 Y110.971 E.02167
G1 X109.998 Y111.52 E.02167
G1 X109.51 Y111.93 E.02167
G1 X108.913 Y112.154 E.02167
G1 X108.324 Y112.166 E.02003
G1 X107.671 Y111.964 E.02322
G1 X107.167 Y111.573 E.02167
G1 X106.823 Y111.037 E.02167
G1 X106.677 Y110.416 E.02167
G1 X106.746 Y109.783 E.02167
G1 X107.023 Y109.208 E.02167
G1 X107.474 Y108.759 E.02167
G1 X108.038 Y108.491 E.0212
G1 X108.655 Y108.422 E.0211
M106 S0
G1 E-.84
M106 S0
;WIPE_START
M106 S0
G1 X109.069 Y108.485 E-.15075
M106 S0
G1 X109.586 Y108.719 E-.20444
M106 S0
G1 X109.596 Y108.728 E-.00481
M106 S0
;WIPE_END
G1 Z.6 F9000
M106 S0
G1 X110.835 Y109.723 Z.6
M106 S0
G1 Z.2
M106 S0
G1 E1.2 F1800
M106 S0
;TYPE:Inner wall
;WIDTH:0.557572
M106 S0
G1 X110.857 Y110.007 E.01192
M106 S0
;WIDTH:0.52921
M106 S0
G1 X110.879 Y110.29 E.01127
M106 S0
;WIDTH:0.534406
M106 S0
G1 X110.87 Y110.585 E.01182
M106 S0
;WIDTH:0.568719
M106 S0
G1 X110.832 Y110.845 E.01124
M106 S0
;WIDTH:0.603032
M106 S0
G1 X110.793 Y111.104 E.01197
M106 S0
G1 E-.84
M106 S0
;WIPE_START
M106 S0
G1 X110.832 Y110.845 E-.09445
M106 S0
G1 X110.87 Y110.585 E-.09445
M106 S0
G1 X110.879 Y110.29 E-.10623
M106 S0
G1 X110.865 Y110.111 E-.06487
M106 S0
;WIPE_END
G1 Z.6 F9000
M106 S0
G1 X102.355 Y102.845 Z.6
M106 S0
G1 Z.2
M106 S0
G1 E1.2 F1800
M106 S0
;TYPE:Outer wall
;WIDTH:0.459999
M106 S0
G1 X102.296 Y103.037 E.00681
G1 X101.952 Y103.573 E.02167
G1 X101.51 Y103.93 E.0193
G1 X100.913 Y104.154 E.02166
G1 X100.276 Y104.166 E.02168
G1 X99.671 Y103.964 E.02167
G1 X99.167 Y103.573 E.02167
G1 X98.823 Y103.037 E.02167
G1 X98.677 Y102.416 E.02167
G1 X98.746 Y101.783 E.02167
G1 X99.023 Y101.208 E.02167
G1 X99.533 Y100.719 E.02402
G1 X100.05 Y100.485 E.0193
G1 X100.605 Y100.426 E.01896
G1 X100.755 Y100.425 E.00509
G1 X101.304 Y100.568 E.0193
G1 X101.839 Y100.915 E.02166
G1 X102.227 Y101.421 E.02168
G1 X102.426 Y102.027 E.02167
G1 X102.41 Y102.664 E.02165
G1 X102.367 Y102.807 E.0051
M106 S0
G1 E-.84
M106 S0
;WIPE_START
M106 S0
G1 X102.296 Y103.037 E-.08654
M106 S0
G1 X101.952 Y103.573 E-.22949
M106 S0
G1 X101.857 Y103.65 E-.04398
M106 S0
;WIPE_END
G1 Z.6 F9000
M106 S0
G1 X99.946 Y100.023 Z.6
M106 S0
G1 Z.2
M106 S0
G1 E1.2 F1800
M106 S0
;TYPE:Inner wall
;WIDTH:0.566758
M106 S0
G1 X100.567 Y99.98 E.02657
M106 S0
;WIDTH:0.552284
M106 S0
G1 X100.842 Y100.002 E.01145
M106 S0
;WIDTH:0.582668
M106 S0
G1 X101.117 Y100.025 E.01213
M106 S0
;WIDTH:0.628738
M106 S0
G1 X101.431 Y100.083 E.01523
M106 S0
G1 E-.84
M106 S0
;WIPE_START
M106 S0
G1 X101.117 Y100.025 E-.11488
M106 S0
G1 X100.842 Y100.002 E-.0993
M106 S0
G1 X100.567 Y99.98 E-.0993
M106 S0
G1 X100.438 Y99.989 E-.04652
M106 S0
;WIPE_END
G1 Z.6 F9000
M106 S0
G1 X92.722 Y112.163 Z.6
M106 S0
G1 Z.2
M106 S0
G1 E1.2 F1800
M106 S0
;TYPE:Outer wall
;WIDTH:0.459999
M106 S0
G1 X92.595 Y112.187 E.00439
G1 X91.898 Y112.067 E.02402
G1 X91.403 Y111.791 E.01929
G1 X90.972 Y111.32 E.02168
G1 X90.724 Y110.733 E.02167
G1 X90.685 Y110.097 E.02166
G1 X90.892 Y109.421 E.02403
G1 X91.229 Y108.964 E.0193
G1 X91.75 Y108.597 E.02166
G1 X92.119 Y108.467 E.01327
G1 X92.684 Y108.419 E.0193
G1 X93.304 Y108.568 E.02167
G1 X93.839 Y108.915 E.02167
G1 X94.228 Y109.421 E.02167
G1 X94.426 Y110.027 E.02167
G1 X94.41 Y110.664 E.02167
G1 X94.184 Y111.26 E.02167
G1 X93.772 Y111.746 E.02167
G1 X93.221 Y112.067 E.02167
G1 X92.761 Y112.155 E.01591
M106 S0
G1 E-.84
M106 S0
;WIPE_START
M106 S0
G1 X92.595 Y112.187 E-.06093
M106 S0
G1 X91.898 Y112.067 E-.25445
M106 S0
G1 X91.79 Y112.007 E-.04462
M106 S0
;WIPE_END
G1 Z.6 F9000
M106 S0
G1 X90.272 Y110.824 Z.6
M106 S0
G1 Z.2
M106 S0
G1 E1.2 F1800
M106 S0
;TYPE:Inner wall
;WIDTH:0.541914
M106 S0
G1 X90.246 Y110.116 E.02883
M106 S0
;WIDTH:0.550864
M106 S0
G1 X90.276 Y109.895 E.00921
M106 S0
;WIDTH:0.598317
M106 S0
G1 X90.306 Y109.674 E.01007
M106 S0
;WIDTH:0.64577
M106 S0
G1 X90.336 Y109.454 E.01093
M106 S0
;WIDTH:0.665746
M106 S0
G1 X90.363 Y109.331 E.00637
M106 S0
G1 E-.84
M106 S0
;WIPE_START
M106 S0
G1 X90.336 Y109.454 E-.04518
M106 S0
G1 X90.306 Y109.674 E-.08011
M106 S0
G1 X90.276 Y109.895 E-.08011
M106 S0
G1 X90.246 Y110.116 E-.08011
M106 S0
G1 X90.254 Y110.322 E-.07449
M106 S0
;WIPE_END
G1 Z.6 F9000
M106 S0
G1 X102.026 Y119.473 Z.6
M106 S0
G1 Z.2
M106 S0
G1 E1.2 F1800
M106 S0
;TYPE:Outer wall
;WIDTH:0.459999
M106 S0
G1 X101.952 Y119.573 E.00424
G1 X101.51 Y119.93 E.0193
G1 X100.913 Y120.154 E.02167
G1 X100.276 Y120.166 E.02167
G1 X99.671 Y119.964 E.02167
G1 X99.167 Y119.573 E.02167
G1 X98.823 Y119.037 E.02167
G1 X98.677 Y118.416 E.02167
G1 X98.746 Y117.783 E.02167
G1 X99.023 Y117.208 E.02167
G1 X99.474 Y116.759 E.02167
G1 X100.05 Y116.485 E.02167
