; HEADER_BLOCK_START
; generated by Creality_Print V5.1.0.9484 on 2024-07-08 at 17:21:04
; total layer number: 40
; filament_density: 1.24
; filament_diameter: 1.75
; max_z_height: 8.00
; HEADER_BLOCK_END

; MINX = 101.50
; MINY = 99.00
; MINZ = 0.00
; MAXX = 118.50
; MAXY = 121.00
; MAXZ = 8.00

; THUMBNAIL_BLOCK_START

;
; THUMBNAIL_BLOCK_END

; THUMBNAIL_BLOCK_START

;
; THUMBNAIL_BLOCK_END

; external perimeters extrusion width = 0.42mm
; perimeters extrusion width = 0.45mm
; infill extrusion width = 0.45mm
; solid infill extrusion width = 0.42mm
; top infill extrusion width = 0.42mm
; first layer extrusion width = 0.46mm

; EXECUTABLE_BLOCK_START
M73 P0 R9
M201 X5000 Y5000 Z500 E5000
M203 X500 Y500 Z30 E100
M204 P5000 R2500 T5000 ; sets acceleration (P, T) and retract acceleration (R), mm/sec^2
M205 X10.00 Y10.00 Z0.40 E5.00 ; sets the jerk limits, mm/sec
;TYPE:Custom
M220 S100 ;Reset Feedrate 
M221 S100 ;Reset Flowrate 
 
M140 S60 ;Set final bed temp 
G28 ;Home 
 
G92 E0 ;Reset Extruder 
G1 Z2.0 F3000 ;Move Z Axis up 
M104 S220 ;Set final nozzle temp 
G1 X-2.1 Y20 Z0.28 F5000.0 ;Move to start position 
M190 S60 ;Wait for bed temp to stabilize 
M109 S220 ;Wait for nozzle temp to stabilize 
G1 X-2.1 Y145.0 Z0.28 F1500.0 E15 ;Draw the first line 
G1 X-2.4 Y145.0 Z0.28 F5000.0 ;Move to side a little 
G1 X-2.4 Y20 Z0.28 F1500.0 E30 ;Draw the second line 
G92 E0  ;Reset Extruder 
G1 E-1.0000 F1800 ;Retract a bit 
M73 P1 R9
G1 Z2.0 F3000 ;Move Z Axis up 
G1 E0.0000 F1800
G90
G21
M83 ; use relative distances for extrusion
; filament start gcode
M106 S0
;LAYER_CHANGE
;Z:0.2
;HEIGHT:0.2
;BEFORE_LAYER_CHANGE
;0.2
G92 E0
M106 P2 S178
M106 S0

G1 E-1.2 F1800
M106 S0
;_SET_FAN_SPEED_CHANGING_LAYER
M204 P500
M205 X8 Y8
; printing object reaction-wheel-adapter-v2.STL id:7598538378328303904 copy 0
M204 T500
G1 Z.4 F9000
M106 S0
G1 X102.147 Y103.268
M106 S0
G1 Z.4
M106 S0
G1 Z.2
M106 S0
G1 E1.2 F1800
M106 S0
;TYPE:Inner wall
;WIDTH:0.459999
M106 S0
G1 X102.683 Y102.677 E.0271
M73 P2 R9
G1 X103.435 Y101.995 E.03451
G1 X104.241 Y101.399 E.03406
G1 X105.123 Y100.869 E.03497
G1 X106.04 Y100.435 E.0345
G1 X106.996 Y100.093 E.03451
G1 X107.981 Y99.847 E.03451
G1 X108.986 Y99.698 E.03451
G1 X110 Y99.648 E.03451
G1 X111.001 Y99.697 E.03407
G1 X112.019 Y99.847 E.03497
G1 X113.004 Y100.093 E.0345
G1 X113.96 Y100.435 E.03451
G1 X114.878 Y100.869 E.03451
G1 X115.749 Y101.391 E.03451
G1 X116.565 Y101.995 E.03451
G1 X117.317 Y102.677 E.03451
G1 X117.853 Y103.268 E.0271
G1 X117.853 Y116.732 E.45762
G1 X117.317 Y117.323 E.0271
G1 X116.565 Y118.005 E.03451
G1 X115.759 Y118.601 E.03406
G1 X114.877 Y119.131 E.03497
G1 X113.96 Y119.565 E.0345
G1 X113.004 Y119.907 E.03451
G1 X112.019 Y120.153 E.03451
G1 X111.014 Y120.302 E.03451
G1 X110.013 Y120.351 E.03407
G1 X108.985 Y120.302 E.03497
G1 X107.981 Y120.153 E.0345
G1 X106.996 Y119.907 E.03451
G1 X106.04 Y119.565 E.03451
G1 X105.122 Y119.131 E.03451
G1 X104.251 Y118.609 E.03451
G1 X103.435 Y118.005 E.03451
G1 X102.683 Y117.323 E.03451
G1 X102.147 Y116.732 E.0271
G1 X102.147 Y103.308 E.45626
M106 S0
G1 X101.73 Y103.107 F9000
M106 S0
;TYPE:Outer wall
G1 F1800
M106 S0
G1 X102.388 Y102.382 E.03327
G1 X103.171 Y101.673 E.0359
G1 X104.009 Y101.051 E.03545
G1 X104.926 Y100.501 E.03636
G1 X105.881 Y100.049 E.0359
G1 X106.875 Y99.694 E.0359
G1 X107.9 Y99.437 E.0359
G1 X108.945 Y99.282 E.0359
G1 X110 Y99.23 E.0359
G1 X111.042 Y99.281 E.03545
G1 X112.1 Y99.437 E.03636
G1 X113.125 Y99.694 E.0359
G1 X114.119 Y100.049 E.0359
G1 X115.074 Y100.501 E.0359
G1 X115.981 Y101.044 E.0359
G1 X116.829 Y101.673 E.0359
G1 X117.612 Y102.382 E.0359
G1 X118.27 Y103.107 E.03327
G1 X118.27 Y116.893 E.46856
G1 X117.612 Y117.618 E.03327
G1 X116.829 Y118.327 E.0359
G1 X115.991 Y118.949 E.03545
G1 X115.074 Y119.499 E.03636
G1 X114.119 Y119.951 E.0359
G1 X113.125 Y120.306 E.0359
G1 X112.1 Y120.563 E.0359
G1 X111.055 Y120.718 E.0359
G1 X110.013 Y120.769 E.03545
G1 X108.945 Y120.718 E.03636
G1 X107.9 Y120.563 E.0359
G1 X106.875 Y120.306 E.0359
G1 X105.881 Y119.951 E.0359
G1 X104.926 Y119.499 E.0359
G1 X104.019 Y118.956 E.0359
G1 X103.171 Y118.327 E.0359
G1 X102.388 Y117.618 E.0359
G1 X101.73 Y116.893 E.03327
G1 X101.73 Y103.147 E.4672
M106 S0
G1 E-.84
M106 S0
;WIPE_START
M106 S0
G1 X102.382 Y102.388 E-.36
M106 S0
;WIPE_END
G1 Z.6 F9000
M106 S0
G1 X115.033 Y111 Z.6
M106 S0
G1 Z.2
M106 S0
G1 E1.2 F1800
M106 S0
;TYPE:Inner wall
M106 S0
G1 X114.909 Y111.543 E.01893
G1 X114.614 Y112.275 E.0268
G1 X114.193 Y112.982 E.02799
G1 X113.673 Y113.604 E.02752
G1 X113.216 Y114.004 E.02064
G1 X112.949 Y114.213 E.01153
G1 X112.375 Y114.565 E.02289
G1 X111.637 Y114.878 E.02725
G1 X110.902 Y115.063 E.02574
G1 X110.049 Y115.145 E.02912
G1 X109.444 Y115.105 E.0206
G1 X109.098 Y115.063 E.01185
G1 X108.459 Y114.909 E.02232
G1 X107.709 Y114.607 E.02749
G1 X107.061 Y114.219 E.02568
G1 X106.436 Y113.707 E.02744
G1 X105.866 Y113.064 E.02921
G1 X105.429 Y112.36 E.02816
G1 X105.122 Y111.636 E.02673
G1 X104.927 Y110.86 E.02718
G1 X104.855 Y110.05 E.02767
G1 X104.91 Y109.244 E.02746
G1 X105.091 Y108.457 E.02743
G1 X105.386 Y107.725 E.0268
G1 X105.807 Y107.018 E.02799
G1 X106.327 Y106.396 E.02752
G1 X106.784 Y105.996 E.02064
G1 X107.051 Y105.787 E.01153
G1 X107.625 Y105.435 E.02289
G1 X108.363 Y105.122 E.02725
G1 X109.098 Y104.937 E.02574
G1 X109.942 Y104.855 E.02882
G1 X110.547 Y104.894 E.02062
G1 X110.904 Y104.938 E.0122
G1 X111.549 Y105.093 E.02256
G1 X112.292 Y105.393 E.02724
G1 X112.939 Y105.781 E.02564
G1 X113.564 Y106.293 E.02744
M73 P3 R9
G1 X114.134 Y106.936 E.02921
G1 X114.571 Y107.64 E.02816
G1 X114.878 Y108.364 E.02673
G1 X115.073 Y109.14 E.02718
G1 X115.145 Y109.95 E.02767
G1 X115.09 Y110.757 E.02746
G1 X115.042 Y110.961 E.00715
M106 S0
G1 X114.63 Y110.908 F9000
M106 S0
;TYPE:Outer wall
G1 F1800
M106 S0
G1 X114.503 Y111.446 E.01879
G1 X114.229 Y112.115 E.02459
G1 X113.836 Y112.766 E.02583
G1 X113.356 Y113.333 E.02525
G1 X112.731 Y113.858 E.02773
G1 X112.16 Y114.207 E.02277
G1 X111.477 Y114.493 E.02516
G1 X110.805 Y114.657 E.02353
G1 X110.016 Y114.729 E.0269
G1 X109.477 Y114.69 E.01839
G1 X109.195 Y114.657 E.00963
G1 X108.561 Y114.505 E.02218
G1 X107.868 Y114.222 E.02544
G1 X107.279 Y113.864 E.02343
G1 X106.707 Y113.39 E.02522
G1 X106.183 Y112.793 E.02699
G1 X105.786 Y112.144 E.02589
G1 X105.507 Y111.477 E.02457
G1 X105.333 Y110.763 E.02497
G1 X105.271 Y110.017 E.02545
G1 X105.326 Y109.276 E.02523
G1 X105.497 Y108.554 E.02522
G1 X105.771 Y107.885 E.02459
G1 X106.164 Y107.234 E.02583
G1 X106.644 Y106.667 E.02525
G1 X107.269 Y106.143 E.02773
G1 X107.84 Y105.793 E.02277
G1 X108.523 Y105.507 E.02516
G1 X109.195 Y105.343 E.02353
G1 X109.975 Y105.271 E.0266
G1 X110.515 Y105.31 E.01842
G1 X110.806 Y105.343 E.00995
G1 X111.448 Y105.497 E.02242
G1 X112.133 Y105.779 E.02516
G1 X112.721 Y106.136 E.02342
G1 X113.293 Y106.61 E.02522
G1 X113.817 Y107.207 E.02699
G1 X114.214 Y107.856 E.02589
G1 X114.493 Y108.523 E.02457
G1 X114.667 Y109.237 E.02497
G1 X114.729 Y109.983 E.02545
G1 X114.674 Y110.724 E.02523
G1 X114.639 Y110.869 E.00507
M106 S0
G1 E-.84
M106 S0
;WIPE_START
M106 S0
G1 X114.503 Y111.446 E-.21338
M106 S0
G1 X114.349 Y111.823 E-.14662
M106 S0
;WIPE_END
G1 Z.6 F9000
M106 S0
G1 X115.681 Y101.548
M106 S0
G1 Z.6
M106 S0
G1 Z.2
M106 S0
G1 E1.2 F1800
M106 S0
;TYPE:Bottom surface
;WIDTH:0.468169
G1 F4800
M106 S0
G1 X117.12 Y102.987 E.07053
G1 X117.498 Y103.404 E.01952
G1 X117.498 Y103.967 E.0195
G1 X114.718 Y101.186 E.13627
G1 X113.824 Y100.763 E.03427
G1 X113.62 Y100.69 E.00751
G1 X117.498 Y104.569 E.19006
G1 X117.498 Y105.17 E.02084
G1 X112.715 Y100.386 E.23442
G1 X111.917 Y100.19 E.02847
G1 X117.498 Y105.771 E.27352
G1 X117.498 Y106.373 E.02084
G1 X111.212 Y100.086 E.30807
G1 X110.967 Y100.05 E.0086
G1 X110.554 Y100.03 E.0143
G1 X117.498 Y106.974 E.3403
G1 X117.498 Y107.575 E.02084
G1 X109.938 Y100.015 E.37049
G1 X109.359 Y100.038 E.02008
G1 X117.498 Y108.177 E.39886
G1 X117.498 Y108.778 E.02084
G1 X108.803 Y100.083 E.42611
G1 X108.28 Y100.161 E.01835
G1 X117.498 Y109.38 E.45178
G1 X117.498 Y109.981 E.02084
G1 X107.78 Y100.262 E.47627
G1 X107.299 Y100.383 E.01718
G1 X111.687 Y104.772 E.21507
G1 X110.888 Y104.573 E.02856
G1 X106.84 Y100.526 E.19835
G1 X106.397 Y100.684 E.0163
G1 X110.233 Y104.52 E.18798
G1 X109.949 Y104.5 E.00987
G1 X109.639 Y104.528 E.01077
G1 X105.972 Y100.86 E.17974
G1 X105.563 Y101.053 E.01565
G1 X109.088 Y104.577 E.17273
G1 X108.604 Y104.695 E.01726
M73 P4 R9
G1 X105.166 Y101.257 E.16848
G1 X104.79 Y101.482 E.01519
G1 X108.139 Y104.832 E.16414
G1 X107.714 Y105.007 E.01596
G1 X104.416 Y101.71 E.1616
G1 X104.071 Y101.966 E.0149
G1 X107.32 Y105.216 E.15925
G1 X106.945 Y105.442 E.01518
G1 X103.725 Y102.222 E.15779
G1 X103.661 Y102.27 E.00279
G1 X103.404 Y102.502 E.01199
G1 X106.597 Y105.695 E.15646
G1 X106.275 Y105.975 E.01477
G1 X103.089 Y102.788 E.15617
G1 X102.788 Y103.089 E.01474
G1 X105.97 Y106.271 E.15595
G1 X105.697 Y106.599 E.0148
G1 X102.502 Y103.404 E.15658
G1 X102.502 Y104.005 E.02081
G1 X105.438 Y106.942 E.14392
G1 X105.211 Y107.316 E.01517
G1 X102.502 Y104.607 E.13278
G1 X102.502 Y105.208 E.02084
G1 X105.012 Y107.719 E.12303
G1 X104.832 Y108.14 E.01587
G1 X102.502 Y105.809 E.1142
G1 X102.502 Y106.411 E.02084
G1 X104.697 Y108.606 E.10758
G1 X104.577 Y109.088 E.0172
G1 X102.502 Y107.012 E.10173
G1 X102.502 Y107.613 E.02084
G1 X104.529 Y109.641 E.09936
G1 X104.498 Y110 E.01249
G1 X104.518 Y110.231 E.00805
G1 X102.502 Y108.215 E.09882
G1 X102.502 Y108.816 E.02084
G1 X104.576 Y110.891 E.10167
G1 X104.768 Y111.684 E.02829
G1 X102.314 Y109.23 E.12028
M106 S0
G1 E-.84 F1800
M106 S0
;WIPE_START
G1 F4800
M106 S0
G1 X103.021 Y109.937 E-.36
M106 S0
;WIPE_END
G1 Z.6 F9000
M106 S0
G1 X114.895 Y107.979 Z.6
M106 S0
G1 Z.2
M106 S0
G1 E1.2 F1800
M106 S0
G1 F4800
M106 S0
G1 X117.498 Y110.582 E.12757
G1 X117.498 Y111.184 E.02084
G1 X115.424 Y109.109 E.10167
G1 X115.482 Y109.769 E.02294
G1 X117.498 Y111.785 E.09882
G1 X117.498 Y112.387 E.02084
G1 X115.473 Y110.361 E.09925
G1 X115.423 Y110.912 E.01917
G1 X117.498 Y112.988 E.10172
G1 X117.498 Y113.589 E.02084
G1 X115.302 Y111.393 E.10762
G1 X115.21 Y111.763 E.0132
G1 X115.168 Y111.86 E.00367
G1 X117.498 Y114.191 E.1142
G1 X117.498 Y114.792 E.02084
G1 X114.988 Y112.282 E.12304
G1 X114.879 Y112.535 E.00957
G1 X114.789 Y112.684 E.00602
G1 X117.498 Y115.394 E.13279
G1 X117.498 Y115.995 E.02084
G1 X114.562 Y113.058 E.14392
G1 X114.49 Y113.176 E.00477
G1 X114.303 Y113.401 E.01014
G1 X117.498 Y116.596 E.15658
G1 X117.212 Y116.911 E.01475
G1 X114.03 Y113.729 E.15595
M73 P5 R9
G1 X113.936 Y113.841 E.00506
G1 X113.725 Y114.025 E.00972
G1 X116.911 Y117.212 E.15617
G1 X116.596 Y117.498 E.01475
G1 X113.403 Y114.305 E.15646
G1 X113.241 Y114.447 E.00746
G1 X113.055 Y114.558 E.00751
G1 X116.275 Y117.778 E.15779
G1 X115.929 Y118.034 E.0149
G1 X112.68 Y114.785 E.15925
G1 X112.438 Y114.93 E.00978
G1 X112.286 Y114.993 E.00568
G1 X115.584 Y118.29 E.1616
G1 X115.21 Y118.518 E.01517
G1 X111.861 Y115.168 E.16414
G1 X111.724 Y115.225 E.00513
G1 X111.396 Y115.305 E.01168
G1 X114.834 Y118.743 E.16848
G1 X114.437 Y118.947 E.01548
G1 X110.912 Y115.423 E.17273
G1 X110.359 Y115.471 E.01924
G1 X114.028 Y119.14 E.17982
G1 X113.603 Y119.316 E.01596
G1 X109.771 Y115.484 E.18779
G1 X109.112 Y115.427 E.0229
G1 X113.16 Y119.474 E.19835
G1 X112.701 Y119.617 E.01665
G1 X107.977 Y114.893 E.2315
M106 S0
G1 E-.84 F1800
M106 S0
;WIPE_START
G1 F4800
M106 S0
G1 X108.684 Y115.6 E-.36
M106 S0
;WIPE_END
G1 Z.6 F9000
M106 S0
G1 X112.375 Y119.892 Z.6
M106 S0
G1 Z.2
M106 S0
G1 E1.2 F1800
M106 S0
G1 F4800
M106 S0
G1 X102.502 Y110.019 E.48385
G1 X102.502 Y110.62 E.02084
G1 X111.72 Y119.839 E.45178
G1 X111.197 Y119.917 E.01835
G1 X102.502 Y111.222 E.42611
G1 X102.502 Y111.823 E.02084
G1 X110.644 Y119.966 E.39902
G1 X110.071 Y119.994 E.01989
G1 X102.502 Y112.425 E.37093
G1 X102.502 Y113.026 E.02084
G1 X109.445 Y119.969 E.34026
G1 X109.02 Y119.949 E.01474
G1 X108.789 Y119.915 E.00809
G1 X102.502 Y113.627 E.30812
G1 X102.502 Y114.229 E.02084
G1 X108.083 Y119.81 E.27352
G1 X107.285 Y119.614 E.02847
G1 X102.502 Y114.83 E.23442
G1 X102.502 Y115.432 E.02084
G1 X106.38 Y119.31 E.19006
G1 X106.176 Y119.237 E.0075
G1 X105.282 Y118.813 E.03428
G1 X102.502 Y116.033 E.13626
M73 P6 R9
G1 X102.502 Y116.596 E.01949
G1 X102.881 Y117.014 E.01958
G1 X104.319 Y118.452 E.07046
M106 S0
G1 E-.84 F1800
M106 S0
;WIPE_START
G1 F4800
M106 S0
G1 X103.612 Y117.745 E-.36
M106 S0
;WIPE_END
G1 Z.6 F9000
M106 S0
G1 X107.884 Y114.987 Z.6
M106 S0
G1 Z.2
M106 S0
G1 E1.2 F1800
M106 S0
;TYPE:Gap infill
;WIDTH:0.156848
M106 S0
G1 X107.752 Y114.897 E.00148
M106 S0
;WIDTH:0.135556
M106 S0
G1 X107.62 Y114.808 E.0012
M106 S0
G1 E-1.04097
M106 S0
;WIPE_START
M106 S0
G1 X107.752 Y114.897 E-.15903
M106 S0
;WIPE_END
G1 Z.6 F9000
M106 S0
G1 X112.379 Y105.191 Z.6
M106 S0
G1 Z.2
M106 S0
G1 E1.2 F1800
M106 S0
;WIDTH:0.114725
M106 S0
G1 X112.255 Y105.107 E.00087
M106 S0
;WIDTH:0.158237
M106 S0
G1 X112.131 Y105.023 E.0014
M106 S0
;WIDTH:0.201749
M106 S0
G1 X112.008 Y104.94 E.00193
M106 S0
;WIDTH:0.223505
M106 S0
G1 X111.884 Y104.856 E.0022
M106 S0
G1 E-1.05059
M106 S0
;WIPE_START
M106 S0
G1 X112.008 Y104.94 E-.14941
M106 S0
;WIPE_END
G1 Z.6 F9000
M106 S0
G1 X115.59 Y101.638 Z.6
M106 S0
G1 Z.2
M106 S0
G1 E1.2 F1800
M106 S0
;WIDTH:0.177411
M106 S0
G1 X115.455 Y101.533 E.00188
M106 S0
;WIDTH:0.143634
M106 S0
G1 X115.32 Y101.427 E.00141
M106 S0
;WIDTH:0.126746
M106 S0
G1 X115.185 Y101.322 E.00117
M106 S0
G1 E-1.02842
M106 S0
;WIPE_START
M106 S0
G1 X115.32 Y101.427 E-.17158
M106 S0
;WIPE_END
G1 Z.6 F9000
M106 S0
G1 X104.815 Y118.678 Z.6
M106 S0
G1 Z.2
M106 S0
G1 E1.2 F1800
M106 S0
;WIDTH:0.109865
M106 S0
G1 X104.68 Y118.573 E.00094
M106 S0
;WIDTH:0.143658
M106 S0
G1 X104.545 Y118.467 E.00141
M106 S0
;WIDTH:0.160554
M106 S0
G1 X104.409 Y118.362 E.00165
M106 S0
; stop printing object reaction-wheel-adapter-v2.STL id:7598538378328303904 copy 0
;TIME_ELAPSED:38.324139

M106 S255
;LAYER_CHANGE
;Z:0.4
;HEIGHT:0.2
;BEFORE_LAYER_CHANGE
;0.4
G92 E0
M106 S255

G1 E-1.02835 F1800
M106 S255
;WIPE_START
M106 S255
G1 X104.545 Y118.467 E-.17165
M106 S255
;WIPE_END
;_SET_FAN_SPEED_CHANGING_LAYER
M204 P2500
; printing object reaction-wheel-adapter-v2.STL id:7598538378328303904 copy 0
M204 T2500
G1 Z.6 F9000
M106 S255
G1 X102.102 Y103.25 Z.6
M106 S255
G1 Z.4
M106 S255
G1 E1.2 F1800
M106 S255
M204 P2000
M205 X10 Y10
;TYPE:Inner wall
;WIDTH:0.449999
G1 F5400
M106 S255
G1 X102.651 Y102.645 E.0271
G1 X103.407 Y101.961 E.03383
G1 X104.195 Y101.377 E.03252
G1 X105.102 Y100.829 E.03517
G1 X106.023 Y100.393 E.03379
G1 X106.983 Y100.05 E.03383
G1 X107.973 Y99.802 E.03383
G1 X108.981 Y99.653 E.03383
G1 X110 Y99.603 E.03383
G1 X110.979 Y99.651 E.03252
G1 X112.028 Y99.803 E.03516
G1 X113.017 Y100.05 E.03379
G1 X113.977 Y100.393 E.03383
G1 X114.899 Y100.829 E.03383
G1 X115.774 Y101.353 E.03383
G1 X116.593 Y101.961 E.03383
G1 X117.349 Y102.645 E.03383
G1 X117.898 Y103.25 E.0271
G1 X117.898 Y116.75 E.4478
G1 X117.349 Y117.355 E.0271
G1 X116.593 Y118.039 E.03383
G1 X115.805 Y118.623 E.03252
G1 X114.898 Y119.171 E.03517
G1 X113.977 Y119.607 E.03379
G1 X113.017 Y119.95 E.03383
G1 X112.027 Y120.198 E.03383
G1 X111.019 Y120.347 E.03383
G1 X110.039 Y120.395 E.03252
G1 X108.98 Y120.347 E.03517
G1 X107.973 Y120.198 E.03379
G1 X106.983 Y119.95 E.03383
G1 X106.023 Y119.607 E.03383
G1 X105.101 Y119.171 E.03383
G1 X104.226 Y118.647 E.03383
G1 X103.407 Y118.039 E.03383
G1 X102.651 Y117.355 E.03383
G1 X102.102 Y116.75 E.0271
G1 X102.102 Y103.29 E.44647
M106 S255
M205 X8 Y8
G1 X101.71 Y103.099 F9000
M106 S255
M204 P1000
M205 X10 Y10
;TYPE:Outer wall
;WIDTH:0.419999
G1 F3600
M106 S255
G1 X102.374 Y102.367 E.03035
G1 X103.158 Y101.657 E.03252
G1 X103.976 Y101.051 E.03129
G1 X104.916 Y100.483 E.03376
G1 X105.873 Y100.031 E.03251
G1 X106.869 Y99.674 E.03252
G1 X107.896 Y99.417 E.03252
G1 X108.943 Y99.262 E.03252
G1 X110 Y99.21 E.03252
G1 X111.017 Y99.26 E.03129
G1 X112.104 Y99.417 E.03376
G1 X113.131 Y99.674 E.03251
G1 X114.127 Y100.031 E.03252
G1 X115.084 Y100.483 E.03252
G1 X115.992 Y101.027 E.03252
G1 X116.842 Y101.657 E.03252
