; HEADER_BLOCK_START
; generated by Creality_Print V5.1.0.9484 on 2024-07-19 at 17:13:16
; total layer number: 25
; filament_density: 1.24
; filament_diameter: 1.75
; max_z_height: 5.00
; HEADER_BLOCK_END

; MINX = 40.00
; MINY = 40.00
; MINZ = 0.00
; MAXX = 180.00
; MAXY = 180.00
; MAXZ = 5.00

; THUMBNAIL_BLOCK_START

;
; THUMBNAIL_BLOCK_END

; THUMBNAIL_BLOCK_START

;
; THUMBNAIL_BLOCK_END

; external perimeters extrusion width = 0.42mm
; perimeters extrusion width = 0.45mm
; infill extrusion width = 0.45mm
; solid infill extrusion width = 0.42mm
; top infill extrusion width = 0.42mm
; first layer extrusion width = 0.46mm

; EXECUTABLE_BLOCK_START
M73 P0 R75
M201 X5000 Y5000 Z500 E5000
M203 X500 Y500 Z30 E100
M204 P5000 R2500 T5000 ; sets acceleration (P, T) and retract acceleration (R), mm/sec^2
M205 X10.00 Y10.00 Z0.40 E5.00 ; sets the jerk limits, mm/sec
;TYPE:Custom
M220 S100 ;Reset Feedrate 
M221 S100 ;Reset Flowrate 
 
M140 S60 ;Set final bed temp 
G28 ;Home 
 
G92 E0 ;Reset Extruder 
G1 Z2.0 F3000 ;Move Z Axis up 
M104 S220 ;Set final nozzle temp 
G1 X-2.1 Y20 Z0.28 F5000.0 ;Move to start position 
M190 S60 ;Wait for bed temp to stabilize 
M109 S220 ;Wait for nozzle temp to stabilize 
G1 X-2.1 Y145.0 Z0.28 F1500.0 E15 ;Draw the first line 
G1 X-2.4 Y145.0 Z0.28 F5000.0 ;Move to side a little 
G1 X-2.4 Y20 Z0.28 F1500.0 E30 ;Draw the second line 
G92 E0  ;Reset Extruder 
G1 E-1.0000 F1800 ;Retract a bit 
G1 Z2.0 F3000 ;Move Z Axis up 
G1 E0.0000 F1800
G90
G21
M83 ; use relative distances for extrusion
; filament start gcode
M106 S0
;LAYER_CHANGE
;Z:0.2
;HEIGHT:0.2
;BEFORE_LAYER_CHANGE
;0.2
G92 E0
M106 P2 S178
M106 S0

G1 E-1.2 F1800
M106 S0
;_SET_FAN_SPEED_CHANGING_LAYER
M204 P500
M205 X8 Y8
; printing object gyroscope-test-plane-sides.STL id:0 copy 0
M204 T500
G1 Z.4 F9000
M106 S0
G1 X179.353 Y179.253
M106 S0
G1 Z.4
M106 S0
G1 Z.2
M106 S0
G1 E1.2 F1800
M106 S0
;TYPE:Inner wall
;WIDTH:0.459999
M106 S0
G1 X40.647 Y179.253 E4.71415
G1 X40.647 Y40.747 E4.70735
G1 X179.353 Y40.747 E4.71415
G1 X179.353 Y179.213 E4.70599
M106 S0
G1 X179.77 Y179.67 F9000
M106 S0
;TYPE:Outer wall
G1 F1800
M106 S0
G1 X40.23 Y179.67 E4.7425
G1 X40.23 Y40.33 E4.7357
G1 X179.77 Y40.33 E4.7425
G1 X179.77 Y179.63 E4.73434
M106 S0
G1 E-.84
M106 S0
;WIPE_START
M106 S0
M73 P1 R74
G1 X178.77 Y179.63 E-.36
M106 S0
;WIPE_END
G1 Z.6 F9000
M106 S0
G1 X165.011 Y177.716 Z.6
M106 S0
G1 Z.2
M106 S0
G1 E1.2 F1800
M106 S0
;TYPE:Inner wall
M106 S0
G1 X164.933 Y177.722 E.00267
G1 X164.53 Y177.656 E.01388
G1 X164.18 Y177.509 E.0129
G1 X163.861 Y177.285 E.01328
G1 X163.46 Y176.832 E.02054
G1 X163.175 Y176.289 E.02085
G1 X162.978 Y175.486 E.02809
G1 X162.985 Y174.661 E.02804
G1 X163.186 Y173.882 E.02733
G1 X163.573 Y173.215 E.02621
G1 X163.997 Y172.809 E.01997
G1 X164.43 Y172.574 E.01673
G1 X164.882 Y172.48 E.01569
G1 X165.298 Y172.507 E.01416
G1 X165.787 Y172.671 E.01754
G1 X166.128 Y172.902 E.014
G1 X166.401 Y173.177 E.01314
G1 X166.648 Y173.54 E.01494
G1 X166.894 Y174.107 E.02098
G1 X167.039 Y174.921 E.02811
G1 X166.983 Y175.741 E.02792
G1 X166.734 Y176.497 E.02707
G1 X166.302 Y177.128 E.02596
G1 X165.938 Y177.438 E.01625
G1 X165.329 Y177.691 E.0224
G1 X165.051 Y177.713 E.00948
M106 S0
G1 X164.98 Y177.308 F9000
M106 S0
;TYPE:Outer wall
G1 F1800
M106 S0
G1 X164.677 Y177.265 E.01039
G1 X164.405 Y177.158 E.00996
G1 X164.161 Y176.995 E.00996
G1 X163.829 Y176.639 E.01654
G1 X163.545 Y176.095 E.02085
G1 X163.386 Y175.398 E.02432
G1 X163.402 Y174.673 E.02462
G1 X163.588 Y173.996 E.02386
G1 X163.927 Y173.436 E.02228
G1 X164.309 Y173.097 E.01734
G1 X164.595 Y172.96 E.01078
G1 X164.882 Y172.897 E.01
G1 X165.177 Y172.906 E.01004
G1 X165.588 Y173.038 E.01467
G1 X165.84 Y173.204 E.01025
G1 X166.064 Y173.422 E.01064
G1 X166.265 Y173.706 E.01183
G1 X166.511 Y174.273 E.02098
G1 X166.626 Y174.984 E.02448
G1 X166.567 Y175.703 E.02453
G1 X166.341 Y176.357 E.02353
G1 X165.967 Y176.88 E.02185
G1 X165.637 Y177.134 E.01413
G1 X165.276 Y177.277 E.0132
G1 X165.02 Y177.304 E.00877
M106 S0
G1 E-.84
M106 S0
;WIPE_START
M106 S0
G1 X164.677 Y177.265 E-.1241
M106 S0
G1 X164.405 Y177.158 E-.10546
M106 S0
G1 X164.161 Y176.995 E-.10554
M106 S0
G1 X164.114 Y176.945 E-.0249
M106 S0
;WIPE_END
G1 Z.6 F9000
M106 S0
G1 X163.592 Y169.974 Z.6
M106 S0
G1 Z.2
M106 S0
G1 E1.2 F1800
M106 S0
;TYPE:Inner wall
M106 S0
G1 X163.605 Y170.063 E.00304
G1 X163.54 Y170.302 E.00845
G1 X163.347 Y170.528 E.01008
G1 X163.088 Y170.647 E.00969
G1 X55.259 Y170.647 E3.66476
G1 X55.005 Y170.593 E.00882
G1 X54.799 Y170.446 E.00859
G1 X54.65 Y170.168 E.01072
G1 X54.648 Y169.884 E.00966
G1 X54.752 Y169.654 E.00858
G1 X55.621 Y168.799 E.04142
G1 X101.752 Y124.061 E2.18404
G1 X101.935 Y123.938 E.00748
G1 X102.215 Y123.885 E.00968
G1 X102.438 Y123.937 E.0078
G1 X104.846 Y124.99 E.08931
G1 X107.327 Y125.624 E.08704
G1 X109.878 Y125.85 E.08704
G1 X112.432 Y125.663 E.08704
G1 X114.923 Y125.067 E.08704
G1 X117.346 Y124.052 E.08931
G1 X117.659 Y124.007 E.01072
G1 X117.93 Y124.105 E.00979
G1 X118.435 Y124.591 E.02386
G1 X163.423 Y169.579 E2.16231
G1 X163.565 Y169.797 E.00883
G1 X163.586 Y169.935 E.00473
M106 S0
G1 X163.189 Y170.035 F9000
M106 S0
;TYPE:Outer wall
G1 F1800
M106 S0
G1 X163.121 Y170.176 E.0053
G1 X162.981 Y170.23 E.00512
G1 X55.259 Y170.23 E3.66111
G1 X55.106 Y170.163 E.00568
G1 X55.05 Y170.012 E.00547
G1 X55.113 Y169.872 E.00523
G1 X102.043 Y124.361 E2.2218
G1 X102.197 Y124.302 E.0056
G1 X104.71 Y125.385 E.09302
G1 X107.257 Y126.036 E.08933
G1 X109.875 Y126.269 E.08933
G1 X112.496 Y126.077 E.08933
G1 X115.053 Y125.465 E.08933
G1 X117.508 Y124.437 E.09046
G1 X117.669 Y124.436 E.00547
G1 X118.141 Y124.886 E.02216
G1 X163.13 Y169.876 E2.16241
G1 X163.175 Y169.998 E.0044
M106 S0
G1 E-.84
M106 S0
;WIPE_START
M106 S0
G1 X163.121 Y170.176 E-.06692
M106 S0
G1 X162.981 Y170.23 E-.05423
M106 S0
G1 X162.317 Y170.23 E-.23885
M106 S0
;WIPE_END
G1 Z.6 F9000
M106 S0
G1 X170.476 Y165.15 Z.6
M106 S0
G1 Z.2
M106 S0
G1 E1.2 F1800
M106 S0
;TYPE:Inner wall
M106 S0
G1 X170.399 Y165.24 E.00402
G1 X170.168 Y165.349 E.00869
G1 X169.917 Y165.358 E.00856
G1 X169.626 Y165.232 E.01079
G1 X168.799 Y164.379 E.04036
G1 X124.061 Y118.248 E2.18404
G1 X123.93 Y118.046 E.00817
G1 X123.888 Y117.75 E.01016
G1 X124.034 Y117.341 E.01478
G1 X124.99 Y115.154 E.08111
G1 X125.624 Y112.673 E.08704
G1 X125.85 Y110.122 E.08704
G1 X125.663 Y107.568 E.08704
G1 X125.067 Y105.077 E.08704
G1 X124.052 Y102.654 E.08931
G1 X124.007 Y102.344 E.01063
G1 X124.107 Y102.067 E.00999
G1 X124.461 Y101.695 E.01746
G1 X169.579 Y56.577 E2.16859
G1 X169.811 Y56.43 E.00932
G1 X170.121 Y56.402 E.0106
G1 X170.357 Y56.491 E.00856
G1 X170.535 Y56.662 E.00838
G1 X170.647 Y56.941 E.01023
G1 X170.647 Y164.741 E3.66379
G1 X170.574 Y165.034 E.01025
G1 X170.502 Y165.119 E.0038
M106 S0
G1 X170.169 Y164.889 F9000
M106 S0
;TYPE:Outer wall
G1 F1800
M106 S0
G1 X170.017 Y164.95 E.00557
G1 X169.872 Y164.887 E.00538
G1 X124.361 Y117.957 E2.2218
G1 X124.297 Y117.781 E.00639
G1 X125.385 Y115.29 E.09239
G1 X126.036 Y112.743 E.08933
G1 X126.269 Y110.125 E.08933
G1 X126.077 Y107.504 E.08933
G1 X125.465 Y104.947 E.08933
G1 X124.437 Y102.492 E.09046
G1 X124.438 Y102.327 E.00563
G1 X125.154 Y101.591 E.03489
G1 X169.876 Y56.87 E2.14952
G1 X170.035 Y56.811 E.00574
G1 X170.174 Y56.877 E.00525
G1 X170.23 Y57.019 E.00518
G1 X170.23 Y164.741 E3.66111
G1 X170.184 Y164.852 E.00406
M106 S0
G1 E-.84
M106 S0
;WIPE_START
M106 S0
G1 X170.017 Y164.95 E-.06981
M106 S0
G1 X169.872 Y164.887 E-.05704
M106 S0
G1 X169.421 Y164.422 E-.23315
M106 S0
;WIPE_END
G1 Z.6 F9000
M106 S0
G1 X122.418 Y120.265 Z.6
M106 S0
G1 Z.2
M106 S0
G1 E1.2 F1800
M106 S0
;TYPE:Inner wall
M106 S0
G1 X122.548 Y120.383 E.00597
G1 X122.799 Y120.901 E.01955
G1 X122.852 Y121.419 E.01771
G1 X122.729 Y121.926 E.01771
G1 X122.448 Y122.359 E.01753
G1 X122.131 Y122.627 E.01413
G1 X121.741 Y122.795 E.01442
G1 X121.223 Y122.853 E.01771
G1 X120.716 Y122.735 E.01771
G1 X120.276 Y122.454 E.01771
G1 X120.13 Y122.302 E.00719
G1 X119.869 Y121.851 E.01771
G1 X119.774 Y121.463 E.01357
G1 X119.799 Y121.028 E.01479
G1 X119.98 Y120.54 E.01771
G1 X120.099 Y120.365 E.00719
G1 X120.484 Y120.014 E.01771
G1 X120.889 Y119.826 E.01518
G1 X121.416 Y119.771 E.01801
G1 X121.741 Y119.832 E.01124
G1 X122.121 Y119.994 E.01404
G1 X122.389 Y120.238 E.01231
M106 S0
G1 X122.143 Y120.567 F9000
M106 S0
;TYPE:Outer wall
G1 F1800
M106 S0
G1 X122.213 Y120.633 E.00326
G1 X122.388 Y120.971 E.01295
G1 X122.441 Y121.349 E.01295
G1 X122.365 Y121.722 E.01295
G1 X122.168 Y122.049 E.01295
G1 X121.875 Y122.292 E.01295
G1 X121.517 Y122.423 E.01295
G1 X121.136 Y122.427 E.01295
G1 X120.775 Y122.304 E.01295
G1 X120.476 Y122.068 E.01295
G1 X120.272 Y121.746 E.01295
G1 X120.188 Y121.374 E.01295
G1 X120.232 Y120.996 E.01295
G1 X120.36 Y120.712 E.01059
G1 X120.672 Y120.387 E.01531
G1 X121.017 Y120.226 E.01295
G1 X121.379 Y120.186 E.01237
G1 X121.586 Y120.219 E.0071
G1 X121.935 Y120.372 E.01295
G1 X122.114 Y120.54 E.00833
M106 S0
G1 E-.84
M106 S0
;WIPE_START
M106 S0
G1 X122.213 Y120.633 E-.04893
M106 S0
G1 X122.388 Y120.971 E-.13722
M106 S0
G1 X122.441 Y121.349 E-.1372
M106 S0
G1 X122.42 Y121.449 E-.03665
M106 S0
;WIPE_END
G1 Z.6 F9000
M106 S0
G1 X99.499 Y122.605 Z.6
M106 S0
G1 Z.2
M106 S0
G1 E1.2 F1800
M106 S0
;TYPE:Inner wall
M106 S0
G1 X99.403 Y122.679 E.00413
G1 X98.907 Y122.84 E.01771
G1 X98.386 Y122.826 E.01771
G1 X97.899 Y122.64 E.01771
G1 X97.565 Y122.38 E.01438
G1 X97.328 Y122.044 E.01398
G1 X97.163 Y121.55 E.01771
G1 X97.171 Y121.028 E.01771
G1 X97.353 Y120.54 E.01771
G1 X97.687 Y120.14 E.01771
G1 X97.857 Y120.014 E.00719
G1 X98.337 Y119.812 E.01771
G1 X98.805 Y119.772 E.01596
G1 X99.403 Y119.948 E.02118
G1 X99.817 Y120.265 E.01771
G1 X99.949 Y120.43 E.00719
G1 X100.172 Y120.901 E.01771
G1 X100.224 Y121.419 E.01771
G1 X100.101 Y121.926 E.01771
G1 X99.839 Y122.342 E.01672
G1 X99.53 Y122.58 E.01325
M106 S0
G1 X99.253 Y122.287 F9000
M106 S0
;TYPE:Outer wall
G1 F1800
M106 S0
G1 X99.247 Y122.292 E.00024
G1 X98.889 Y122.423 E.01295
G1 X98.508 Y122.427 E.01295
G1 X98.147 Y122.304 E.01295
G1 X97.848 Y122.068 E.01295
G1 X97.645 Y121.746 E.01295
G1 X97.56 Y121.374 E.01295
G1 X97.604 Y120.996 E.01295
G1 X97.772 Y120.653 E.01295
G1 X98.044 Y120.387 E.01295
G1 X98.39 Y120.226 E.01295
G1 X98.752 Y120.186 E.01237
G1 X98.907 Y120.206 E.00531
G1 X99.307 Y120.372 E.01473
G1 X99.585 Y120.633 E.01295
G1 X99.765 Y120.997 E.0138
G1 X99.813 Y121.349 E.01207
G1 X99.737 Y121.722 E.01295
G1 X99.541 Y122.049 E.01295
G1 X99.284 Y122.262 E.01135
M106 S0
G1 E-.84
M106 S0
;WIPE_START
M106 S0
G1 X99.247 Y122.292 E-.01699
M106 S0
G1 X98.889 Y122.423 E-.13721
M106 S0
G1 X98.508 Y122.427 E-.13721
M106 S0
G1 X98.328 Y122.366 E-.06859
M106 S0
;WIPE_END
G1 Z.6 F9000
M106 S0
G1 X100.13 Y99.181 Z.6
M106 S0
G1 Z.2
M106 S0
M73 P2 R74
G1 E1.2 F1800
M106 S0
;TYPE:Inner wall
M106 S0
G1 X100.101 Y99.298 E.0041
G1 X99.817 Y99.735 E.01771
G1 X99.403 Y100.052 E.01771
G1 X98.907 Y100.212 E.01771
G1 X98.459 Y100.216 E.01524
G1 X97.996 Y100.071 E.0165
G1 X97.572 Y99.759 E.01787
G1 X97.328 Y99.416 E.01431
G1 X97.241 Y99.224 E.00719
G1 X97.145 Y98.711 E.01771
G1 X97.224 Y98.196 E.01771
G1 X97.471 Y97.737 E.01771
G1 X97.768 Y97.441 E.01425
G1 X98.135 Y97.247 E.01411
G1 X98.646 Y97.145 E.01771
G1 X98.96 Y97.165 E.01069
G1 X99.403 Y97.321 E.01596
G1 X99.817 Y97.638 E.01771
G1 X99.949 Y97.802 E.00719
G1 X100.172 Y98.274 E.01771
G1 X100.224 Y98.792 E.01771
G1 X100.139 Y99.142 E.01225
M106 S0
G1 X99.739 Y99.088 F9000
M106 S0
;TYPE:Outer wall
G1 F1800
M106 S0
G1 X99.737 Y99.095 E.00026
G1 X99.541 Y99.422 E.01295
G1 X99.247 Y99.665 E.01295
G1 X98.889 Y99.796 E.01295
G1 X98.508 Y99.8 E.01295
G1 X98.147 Y99.677 E.01295
G1 X97.848 Y99.441 E.01295
G1 X97.645 Y99.118 E.01295
G1 X97.56 Y98.747 E.01295
G1 X97.604 Y98.368 E.01295
G1 X97.772 Y98.026 E.01295
G1 X98.044 Y97.759 E.01295
G1 X98.39 Y97.598 E.01295
G1 X98.752 Y97.559 E.01237
G1 X98.958 Y97.592 E.0071
G1 X99.307 Y97.745 E.01295
G1 X99.585 Y98.006 E.01295
G1 X99.761 Y98.344 E.01295
G1 X99.813 Y98.722 E.01295
G1 X99.747 Y99.048 E.01134
M106 S0
G1 E-.84
M106 S0
;WIPE_START
M106 S0
G1 X99.737 Y99.095 E-.01711
M106 S0
G1 X99.541 Y99.422 E-.13721
M106 S0
G1 X99.247 Y99.665 E-.13721
M106 S0
G1 X99.069 Y99.73 E-.06847
M106 S0
;WIPE_END
G1 Z.6 F9000
M106 S0
G1 X165.352 Y49.972 Z.6
M106 S0
G1 Z.2
M106 S0
G1 E1.2 F1800
M106 S0
;TYPE:Inner wall
M106 S0
G1 X165.352 Y50.115 E.00485
G1 X165.237 Y50.369 E.00947
G1 X118.248 Y95.939 E2.22466
G1 X117.996 Y96.088 E.00996
G1 X117.656 Y96.104 E.01156
G1 X115.154 Y95.01 E.09279
G1 X112.673 Y94.376 E.08704
G1 X110.122 Y94.15 E.08704
G1 X107.568 Y94.337 E.08704
G1 X105.077 Y94.933 E.08704
G1 X102.654 Y95.948 E.08931
G1 X102.338 Y95.992 E.01083
G1 X102.056 Y95.886 E.01023
G1 X101.522 Y95.366 E.02536
G1 X56.577 Y50.421 E2.16024
G1 X56.435 Y50.203 E.00884
G1 X56.395 Y49.938 E.0091
G1 X56.45 Y49.719 E.00767
G1 X56.639 Y49.481 E.01033
G1 X56.92 Y49.361 E.01038
G1 X57.527 Y49.353 E.02063
G1 X164.741 Y49.353 E3.64386
G1 X165.011 Y49.414 E.00938
G1 X165.226 Y49.583 E.00932
G1 X165.353 Y49.846 E.0099
G1 X165.352 Y49.932 E.00293
M106 S0
G1 X164.95 Y49.971 F9000
M106 S0
;TYPE:Outer wall
G1 F1800
M106 S0
G1 X164.887 Y50.128 E.00576
G1 X117.957 Y95.639 E2.2218
G1 X117.778 Y95.702 E.00645
G1 X115.29 Y94.615 E.0923
G1 X112.743 Y93.964 E.08933
G1 X110.125 Y93.731 E.08933
G1 X107.504 Y93.923 E.08933
G1 X104.947 Y94.535 E.08933
G1 X102.492 Y95.563 E.09046
G1 X102.32 Y95.558 E.00587
G1 X101.817 Y95.071 E.02381
G1 X56.87 Y50.124 E2.16035
G1 X56.811 Y49.965 E.00574
G1 X56.893 Y49.813 E.00587
G1 X57.019 Y49.77 E.00454
G1 X164.741 Y49.77 E3.66111
G1 X164.878 Y49.821 E.00496
M73 P2 R73
G1 X164.932 Y49.935 E.00428
M106 S0
G1 E-.84
M106 S0
;WIPE_START
M106 S0
G1 X164.887 Y50.128 E-.07156
M106 S0
G1 X164.311 Y50.686 E-.28844
M106 S0
;WIPE_END
G1 Z.6 F9000
M106 S0
G1 X104.742 Y99.614 Z.6
M106 S0
G1 Z.2
M106 S0
G1 E1.2 F1800
M106 S0
;TYPE:Inner wall
M106 S0
G1 X104.805 Y99.578 E.00244
G1 X106.589 Y98.861 E.06534
G1 X108.514 Y98.446 E.06692
G1 X109.93 Y98.356 E.04825
G1 X110.512 Y98.363 E.01978
G1 X112.505 Y98.628 E.06833
G1 X114.344 Y99.191 E.06534
G1 X115.756 Y99.903 E.05376
G1 X116.211 Y100.157 E.01772
G1 X117.654 Y101.223 E.06097
G1 X119.027 Y102.643 E.06713
G1 X120.17 Y104.319 E.06894
G1 X120.984 Y106.119 E.06715
G1 X121.472 Y107.994 E.06585
G1 X121.65 Y109.999 E.0684
G1 X121.482 Y111.969 E.06719
G1 X120.984 Y113.881 E.06715
G1 X120.192 Y115.633 E.06534
G1 X119.776 Y116.265 E.02571
G1 X119.093 Y117.274 E.04142
G1 X117.733 Y118.706 E.06713
G1 X116.151 Y119.888 E.06713
G1 X114.391 Y120.785 E.06713
G1 X112.505 Y121.372 E.06713
G1 X110.548 Y121.632 E.06711
G1 X109.987 Y121.648 E.01908
G1 X108.514 Y121.554 E.05017
G1 X106.589 Y121.139 E.06692
G1 X104.805 Y120.422 E.06534
G1 X103.652 Y119.723 E.04581
G1 X103.118 Y119.394 E.02132
G1 X101.63 Y118.096 E.06713
G1 X100.382 Y116.565 E.06713
G1 X99.385 Y114.798 E.06894
G1 X98.726 Y112.935 E.06715
G1 X98.402 Y111.041 E.06533
G1 X98.353 Y110.027 E.03451
G1 X98.393 Y109.038 E.03361
G1 X98.717 Y107.117 E.06622
G1 X99.367 Y105.252 E.06713
G1 X100.322 Y103.523 E.06713
G1 X101.556 Y101.981 E.06713
G1 X102.209 Y101.395 E.02981
G1 X103.033 Y100.669 E.03732
G1 X104.582 Y99.705 E.06202
G1 X104.708 Y99.633 E.00491
M106 S0
G1 X104.946 Y99.973 F9000
M106 S0
;TYPE:Outer wall
G1 F1800
M106 S0
G1 X104.96 Y99.965 E.00055
G1 X106.711 Y99.261 E.06414
G1 X108.571 Y98.861 E.06466
G1 X109.957 Y98.772 E.0472
G1 X110.483 Y98.78 E.01789
G1 X112.383 Y99.026 E.06511
G1 X114.187 Y99.579 E.06414
G1 X115.568 Y100.275 E.05256
G1 X115.963 Y100.492 E.01532
G1 X117.406 Y101.559 E.06097
G1 X118.726 Y102.932 E.06473
G1 X119.805 Y104.523 E.06534
G1 X120.589 Y106.259 E.06474
G1 X121.06 Y108.065 E.06346
G1 X121.231 Y110 E.06599
G1 X121.069 Y111.898 E.06475
G1 X120.589 Y113.741 E.06474
G1 X119.812 Y115.461 E.06414
G1 X119.43 Y116.031 E.02331
G1 X118.748 Y117.041 E.04142
G1 X117.432 Y118.418 E.06473
G1 X115.903 Y119.553 E.06473
G1 X114.203 Y120.413 E.06473
G1 X112.383 Y120.974 E.06473
G1 X110.495 Y121.218 E.06471
G1 X109.99 Y121.23 E.01718
G1 X108.571 Y121.139 E.04831
