; HEADER_BLOCK_START
; generated by Creality_Print V5.1.0.9484 on 2024-07-19 at 17:14:19
; total layer number: 25
; filament_density: 1.24
; filament_diameter: 1.75
; max_z_height: 5.00
; HEADER_BLOCK_END

; MINX = 40.00
; MINY = 40.00
; MINZ = 0.00
; MAXX = 180.00
; MAXY = 180.00
; MAXZ = 5.00

; THUMBNAIL_BLOCK_START

;
; THUMBNAIL_BLOCK_END

; THUMBNAIL_BLOCK_START

;
; THUMBNAIL_BLOCK_END

; external perimeters extrusion width = 0.42mm
; perimeters extrusion width = 0.45mm
; infill extrusion width = 0.45mm
; solid infill extrusion width = 0.42mm
; top infill extrusion width = 0.42mm
; first layer extrusion width = 0.46mm

; EXECUTABLE_BLOCK_START
M73 P0 R82
M201 X5000 Y5000 Z500 E5000
M203 X500 Y500 Z30 E100
M204 P5000 R2500 T5000 ; sets acceleration (P, T) and retract acceleration (R), mm/sec^2
M205 X10.00 Y10.00 Z0.40 E5.00 ; sets the jerk limits, mm/sec
;TYPE:Custom
M220 S100 ;Reset Feedrate 
M221 S100 ;Reset Flowrate 
 
M140 S60 ;Set final bed temp 
G28 ;Home 
 
G92 E0 ;Reset Extruder 
G1 Z2.0 F3000 ;Move Z Axis up 
M104 S220 ;Set final nozzle temp 
G1 X-2.1 Y20 Z0.28 F5000.0 ;Move to start position 
M190 S60 ;Wait for bed temp to stabilize 
M109 S220 ;Wait for nozzle temp to stabilize 
G1 X-2.1 Y145.0 Z0.28 F1500.0 E15 ;Draw the first line 
G1 X-2.4 Y145.0 Z0.28 F5000.0 ;Move to side a little 
G1 X-2.4 Y20 Z0.28 F1500.0 E30 ;Draw the second line 
G92 E0  ;Reset Extruder 
G1 E-1.0000 F1800 ;Retract a bit 
G1 Z2.0 F3000 ;Move Z Axis up 
G1 E0.0000 F1800
G90
G21
M83 ; use relative distances for extrusion
; filament start gcode
M106 S0
;LAYER_CHANGE
;Z:0.2
;HEIGHT:0.2
;BEFORE_LAYER_CHANGE
;0.2
G92 E0
M106 P2 S178
M106 S0

G1 E-1.2 F1800
M106 S0
;_SET_FAN_SPEED_CHANGING_LAYER
M204 P500
M205 X8 Y8
; printing object gyroscope-test-plane-bottom.STL id:18192733411348901388 copy 0
M204 T500
G1 Z.4 F9000
M106 S0
G1 X176.902 Y48.939
M106 S0
G1 Z.4
M106 S0
G1 Z.2
M106 S0
G1 E1.2 F1800
M106 S0
;TYPE:Inner wall
;WIDTH:0.459999
M106 S0
G1 X177.308 Y49.032 E.01415
G1 X177.996 Y48.98 E.02344
G1 X178.627 Y48.702 E.02345
G1 X179.129 Y48.229 E.02344
G1 X179.353 Y47.821 E.0158
G1 X179.353 Y172.161 E4.2259
G1 X179.019 Y171.637 E.02111
G1 X178.479 Y171.209 E.02344
G1 X177.877 Y170.99 E.02177
G1 X177.476 Y170.959 E.01368
G1 X176.89 Y171.046 E.0201
G1 X176.373 Y171.298 E.01957
G1 X176.203 Y171.424 E.00719
G1 X175.801 Y171.858 E.0201
G1 X175.554 Y172.384 E.01975
G1 X175.501 Y172.589 E.00719
G1 X175.465 Y173.215 E.02131
G1 X175.599 Y173.743 E.01853
G1 X175.763 Y174.049 E.0118
G1 X176.08 Y174.47 E.01789
G1 X176.488 Y174.772 E.01727
G1 X176.677 Y174.868 E.00719
G1 X177.291 Y175.035 E.02165
G1 X177.826 Y175.015 E.01819
G1 X178.479 Y174.791 E.02345
G1 X179.019 Y174.363 E.02345
G1 X179.353 Y173.839 E.0211
G1 X179.353 Y179.353 E.18741
G1 X173.827 Y179.353 E.18782
G1 X174.297 Y179.076 E.01855
G1 X174.748 Y178.554 E.02344
G1 X174.999 Y177.911 E.02344
G1 X175.035 Y177.284 E.02137
G1 X174.901 Y176.757 E.01847
G1 X174.737 Y176.451 E.0118
G1 X174.42 Y176.03 E.01789
G1 X174.012 Y175.728 E.01727
G1 X173.823 Y175.632 E.00719
G1 X173.261 Y175.47 E.0199
G1 X172.803 Y175.469 E.01557
G1 X172.203 Y175.615 E.02096
G1 X171.733 Y175.9 E.0187
G1 X171.573 Y176.041 E.00724
G1 X171.195 Y176.535 E.02114
G1 X171.009 Y177.052 E.01866
G1 X170.973 Y177.74 E.02343
G1 X171.169 Y178.402 E.02345
G1 X171.273 Y178.587 E.00724
G1 X171.579 Y178.964 E.01649
G1 X172.142 Y179.352 E.02325
G1 X47.824 Y179.353 E4.22514
G1 X48.16 Y179.179 E.01284
G1 X48.523 Y178.858 E.01649
G1 X48.887 Y178.278 E.02325
G1 X49.038 Y177.606 E.02343
G1 X48.957 Y176.921 E.02344
G1 X48.887 Y176.721 E.00719
G1 X48.594 Y176.215 E.01989
G1 X48.159 Y175.82 E.01997
G1 X47.979 Y175.709 E.00719
G1 X47.489 Y175.514 E.01791
G1 X46.976 Y175.459 E.01755
G1 X46.427 Y175.535 E.01881
G1 X46.001 Y175.734 E.01599
G1 X45.703 Y175.924 E.01201
G1 X45.35 Y176.294 E.01738
G1 X45.113 Y176.754 E.01757
G1 X45.001 Y177.089 E.01201
G1 X44.978 Y177.778 E.02345
G1 X45.186 Y178.436 E.02345
G1 X45.602 Y178.987 E.02345
G1 X46.148 Y179.353 E.02235
G1 X40.647 Y179.353 E.18695
G1 X40.647 Y173.839 E.18739
G1 X40.669 Y173.902 E.00225
G1 X41.074 Y174.46 E.02345
G1 X41.642 Y174.852 E.02345
G1 X42.308 Y175.032 E.02344
G1 X42.824 Y175.002 E.01756
G1 X43.198 Y174.918 E.01304
G1 X43.696 Y174.661 E.01906
G1 X44.036 Y174.326 E.01619
G1 X44.248 Y174.054 E.01174
G1 X44.477 Y173.531 E.0194
G1 X44.525 Y173.112 E.01434
G1 X44.522 Y172.722 E.01323
G1 X44.328 Y172.086 E.02262
G1 X44.045 Y171.666 E.01721
G1 X43.898 Y171.513 E.00719
G1 X43.421 Y171.172 E.01995
G1 X42.864 Y170.992 E.0199
G1 X42.459 Y170.955 E.0138
G1 X41.838 Y171.07 E.02149
G1 X41.233 Y171.4 E.02343
G1 X41.073 Y171.541 E.00724
G1 X40.769 Y171.919 E.01649
G1 X40.647 Y172.16 E.00916
G1 X40.647 Y47.849 E4.2249
G1 X40.686 Y47.936 E.00324
G1 X41.102 Y48.487 E.02345
G1 X41.677 Y48.868 E.02344
G1 X42.346 Y49.035 E.02345
G1 X42.942 Y48.999 E.0203
G1 X43.479 Y48.791 E.01955
G1 X43.659 Y48.68 E.00719
G1 X44.095 Y48.283 E.02004
G1 X44.387 Y47.779 E.01981
G1 X44.495 Y47.356 E.01485
G1 X44.538 Y46.893 E.01579
G1 X44.422 Y46.298 E.02059
G1 X44.152 Y45.801 E.01922
G1 X44.019 Y45.637 E.00717
G1 X43.552 Y45.244 E.02077
G1 X43.033 Y45.03 E.01908
G1 X42.612 Y44.957 E.01452
G1 X42.004 Y45.02 E.02078
G1 X41.373 Y45.298 E.02343
G1 X40.871 Y45.771 E.02345
G1 X40.647 Y46.179 E.0158
G1 X40.647 Y40.647 E.188
G1 X46.142 Y40.648 E.18674
G1 X45.733 Y40.9 E.01633
G1 X45.272 Y41.414 E.02345
G1 X45.009 Y42.051 E.02344
G1 X44.973 Y42.74 E.02344
G1 X45.01 Y42.95 E.00724
G1 X45.225 Y43.52 E.0207
G1 X45.574 Y43.961 E.01911
G1 X45.733 Y44.1 E.00717
G1 X46.262 Y44.409 E.02082
G1 X46.808 Y44.532 E.01903
G1 X47.019 Y44.541 E.00719
G1 X47.664 Y44.434 E.0222
G1 X48.127 Y44.202 E.01762
G1 X48.297 Y44.076 E.00719
G1 X48.708 Y43.628 E.02065
G1 X48.946 Y43.116 E.0192
G1 X48.999 Y42.911 E.00718
G1 X49.022 Y42.222 E.02343
G1 X48.814 Y41.564 E.02347
G1 X48.398 Y41.013 E.02344
G1 X47.852 Y40.647 E.02235
G1 X172.173 Y40.647 E4.22526
G1 X171.703 Y40.924 E.01855
G1 X171.252 Y41.446 E.02344
G1 X171.001 Y42.089 E.02344
G1 X170.978 Y42.778 E.02344
G1 X171.158 Y43.39 E.02167
G1 X171.455 Y43.834 E.01816
G1 X171.602 Y43.987 E.00719
G1 X172.13 Y44.351 E.02183
G1 X172.636 Y44.508 E.018
G1 X172.846 Y44.535 E.00719
G1 X173.403 Y44.507 E.01895
G1 X173.841 Y44.346 E.01586
G1 X174.159 Y44.18 E.01218
G1 X174.578 Y43.804 E.01915
G1 X174.818 Y43.401 E.01595
G1 X174.957 Y43.079 E.01189
G1 X175.043 Y42.569 E.0176
G1 X174.957 Y41.921 E.02222
G1 X174.652 Y41.302 E.02344
G1 X174.159 Y40.82 E.02345
G1 X173.824 Y40.647 E.01279
G1 X179.353 Y40.647 E.18789
G1 X179.353 Y46.152 E.18709
G1 X179.044 Y45.666 E.01957
G1 X178.512 Y45.228 E.02343
G1 X177.864 Y44.992 E.02345
G1 X177.459 Y44.955 E.0138
G1 X176.999 Y45.035 E.01589
G1 X176.642 Y45.148 E.01273
G1 X176.167 Y45.447 E.01907
G1 X175.857 Y45.808 E.01617
G1 X175.669 Y46.098 E.01176
G1 X175.485 Y46.641 E.01948
G1 X175.473 Y47.053 E.01401
G1 X175.509 Y47.449 E.0135
G1 X175.744 Y48.049 E.02191
G1 X176.074 Y48.46 E.01792
G1 X176.307 Y48.646 E.01013
G1 X176.747 Y48.904 E.01734
G1 X176.863 Y48.93 E.00403
M106 S0
G1 E-.84
M106 S0
;WIPE_START
M106 S0
G1 X177.308 Y49.032 E-.16433
M106 S0
G1 X177.85 Y48.991 E-.19567
M106 S0
;WIPE_END
G1 Z.6 F9000
M106 S0
G1 X179.77 Y179.77 Z.6
M106 S0
G1 Z.2
M106 S0
G1 E1.2 F1800
M106 S0
;TYPE:Outer wall
M106 S0
G1 X174.163 Y179.77 E.19057
M106 S0
;WIDTH:0.508282
M106 S0
G1 X173.938 Y179.746 E.00859
M106 S0
;WIDTH:0.556565
M106 S0
G1 X173.713 Y179.722 E.00948
M106 S0
;WIDTH:0.604847
M106 S0
G1 X173.488 Y179.698 E.01037
G1 X172.94 Y179.714 E.0251
M106 S0
;WIDTH:0.572057
M106 S0
G1 X172.742 Y179.733 E.00857
M106 S0
;WIDTH:0.534705
M106 S0
G1 X172.544 Y179.751 E.00796
M106 S0
;WIDTH:0.497352
M106 S0
G1 X172.346 Y179.77 E.00736
M106 S0
;WIDTH:0.459999
M106 S0
G1 X47.991 Y179.77 E4.22644
M106 S0
;WIDTH:0.502538
M106 S0
G1 X47.768 Y179.749 E.00838
M106 S0
;WIDTH:0.545077
M106 S0
M73 P0 R81
G1 X47.545 Y179.727 E.00915
M106 S0
;WIDTH:0.587616
M106 S0
G1 X47.323 Y179.706 E.00993
G1 X46.819 Y179.711 E.02233
M106 S0
;WIDTH:0.57717
M106 S0
G1 X46.606 Y179.731 E.00933
M106 S0
;WIDTH:0.538113
M106 S0
G1 X46.392 Y179.75 E.00865
M106 S0
;WIDTH:0.499056
M106 S0
G1 X46.179 Y179.77 E.00797
M106 S0
;WIDTH:0.459999
M106 S0
G1 X40.23 Y179.77 E.20219
G1 X40.23 Y173.905 E.19932
M106 S0
;WIDTH:0.501907
M106 S0
G1 X40.251 Y173.715 E.00717
M106 S0
;WIDTH:0.543815
M106 S0
G1 X40.272 Y173.525 E.00782
M106 S0
;WIDTH:0.585722
M106 S0
G1 X40.293 Y173.334 E.00848
G1 X40.291 Y172.76 E.0254
M106 S0
;WIDTH:0.581642
M106 S0
G1 X40.271 Y172.54 E.0097
M106 S0
;WIDTH:0.541095
M106 S0
G1 X40.25 Y172.32 E.00897
M106 S0
;WIDTH:0.500547
M106 S0
G1 X40.23 Y172.1 E.00824
M106 S0
;WIDTH:0.459999
M106 S0
G1 X40.23 Y47.737 E4.22667
M106 S0
;WIDTH:0.497993
M106 S0
G1 X40.249 Y47.532 E.00765
M106 S0
;WIDTH:0.535987
M106 S0
G1 X40.268 Y47.326 E.00829
M106 S0
;WIDTH:0.57398
M106 S0
G1 X40.287 Y47.121 E.00893
M106 S0
;WIDTH:0.595355
M106 S0
G1 X40.298 Y46.595 E.02367
G1 X40.275 Y46.371 E.01012
M106 S0
;WIDTH:0.550237
M106 S0
G1 X40.253 Y46.147 E.0093
M106 S0
;WIDTH:0.505118
M106 S0
G1 X40.23 Y45.924 E.00847
M106 S0
;WIDTH:0.459999
M106 S0
G1 X40.23 Y40.23 E.19351
G1 X46.346 Y40.23 E.20786
M106 S0
;WIDTH:0.499124
M106 S0
G1 X46.631 Y40.25 E.01063
M106 S0
;WIDTH:0.538249
M106 S0
G1 X46.916 Y40.269 E.01154
M106 S0
;WIDTH:0.577374
M106 S0
G1 X47.201 Y40.289 E.01245
G1 X47.408 Y40.269 E.00904
M106 S0
;WIDTH:0.538249
M106 S0
G1 X47.614 Y40.25 E.00837
M106 S0
;WIDTH:0.499124
M106 S0
G1 X47.821 Y40.23 E.00771
M106 S0
;WIDTH:0.459999
M106 S0
G1 X171.837 Y40.23 E4.21489
M106 S0
;WIDTH:0.508294
M106 S0
G1 X172.062 Y40.254 E.00858
M106 S0
;WIDTH:0.556589
M106 S0
G1 X172.287 Y40.278 E.00947
M106 S0
;WIDTH:0.604884
M106 S0
G1 X172.512 Y40.302 E.01036
G1 X173.367 Y40.295 E.03916
M106 S0
;WIDTH:0.589464
M106 S0
G1 X173.575 Y40.273 E.00931
M106 S0
;WIDTH:0.546309
M106 S0
G1 X173.783 Y40.252 E.00857
M106 S0
;WIDTH:0.503154
M106 S0
G1 X173.991 Y40.23 E.00784
M106 S0
;WIDTH:0.459999
M106 S0
G1 X179.77 Y40.23 E.19642
G1 X179.77 Y46.257 E.20484
M106 S0
;WIDTH:0.498298
M106 S0
M73 P1 R81
G1 X179.751 Y46.48 E.0083
M106 S0
;WIDTH:0.536597
M106 S0
G1 X179.732 Y46.703 E.00899
M106 S0
;WIDTH:0.574895
M106 S0
G1 X179.713 Y46.925 E.00969
M106 S0
;WIDTH:0.598539
M106 S0
G1 X179.701 Y47.454 E.02395
G1 X179.724 Y47.662 E.00945
M106 S0
;WIDTH:0.552359
M106 S0
G1 X179.747 Y47.869 E.00866
M106 S0
;WIDTH:0.506179
M106 S0
G1 X179.77 Y48.076 E.00788
M106 S0
;WIDTH:0.459999
M106 S0
G1 X179.77 Y171.75 E4.20324
M106 S0
;WIDTH:0.499036
M106 S0
G1 X179.75 Y171.92 E.00636
M106 S0
;WIDTH:0.538073
M106 S0
G1 X179.731 Y172.09 E.0069
M106 S0
;WIDTH:0.57711
M106 S0
G1 X179.711 Y172.26 E.00745
M106 S0
;WIDTH:0.616147
M106 S0
G1 X179.692 Y172.43 E.00799
G1 X179.714 Y173 E.02667
M106 S0
;WIDTH:0.616336
M106 S0
G1 X179.692 Y173.573 E.02678
G1 X179.711 Y173.742 E.00797
M106 S0
;WIDTH:0.577252
M106 S0
G1 X179.731 Y173.912 E.00743
M106 S0
;WIDTH:0.538168
M106 S0
G1 X179.75 Y174.081 E.00688
M106 S0
;WIDTH:0.499084
M106 S0
G1 X179.77 Y174.25 E.00634
M106 S0
;WIDTH:0.459999
M106 S0
G1 X179.77 Y179.73 E.18624
M106 S0
G1 E-.84
M106 S0
;WIPE_START
M106 S0
G1 X178.77 Y179.737 E-.36
M106 S0
;WIPE_END
G1 Z.6 F9000
M106 S0
G1 X176.994 Y48.536 Z.6
M106 S0
G1 Z.2
M106 S0
G1 E1.2 F1800
M106 S0
M106 S0
G1 X176.926 Y48.523 E.00236
G1 X176.451 Y48.245 E.0187
G1 X176.097 Y47.824 E.0187
G1 X175.902 Y47.31 E.0187
G1 X175.89 Y46.76 E.01869
M106 S0
M106 S0
G1 X176.062 Y46.237 E.01869
G1 X176.399 Y45.802 E.0187
G1 X176.861 Y45.503 E.01869
G1 X177.391 Y45.377 E.01853
G1 X177.742 Y45.391 E.01193
G1 X178.264 Y45.563 E.0187
G1 X178.699 Y45.899 E.01869
G1 X178.995 Y46.357 E.01852
M106 S0
;WIDTH:0.497976
M106 S0
G1 X179.057 Y46.532 E.00686
M106 S0
;WIDTH:0.535953
M106 S0
G1 X179.12 Y46.706 E.00744
M106 S0
;WIDTH:0.573929
M106 S0
G1 X179.182 Y46.88 E.00801
M106 S0
;WIDTH:0.595364
M106 S0
G1 X179.151 Y47.382 E.02263
G1 X179.057 Y47.548 E.00862
M106 S0
;WIDTH:0.550243
M106 S0
G1 X178.962 Y47.715 E.00792
M106 S0
;WIDTH:0.505121
M106 S0
G1 X178.868 Y47.882 E.00722
M106 S0
;WIDTH:0.459999
M106 S0
G1 X178.496 Y48.287 E.01869
G1 X178.01 Y48.545 E.0187
G1 X177.466 Y48.627 E.01869
G1 X177.034 Y48.544 E.01497
M106 S0
G1 E-.84
M106 S0
;WIPE_START
M106 S0
G1 X176.926 Y48.523 E-.03943
M106 S0
G1 X176.451 Y48.245 E-.19804
M106 S0
G1 X176.232 Y47.985 E-.12253
M106 S0
;WIPE_END
G1 Z.6 F9000
M106 S0
G1 X172.323 Y43.976 Z.6
M106 S0
G1 Z.2
M106 S0
G1 E1.2 F1800
M106 S0
M106 S0
G1 X172.299 Y43.969 E.00086
G1 X171.85 Y43.651 E.01869
G1 X171.532 Y43.202 E.0187
G1 X171.382 Y42.673 E.0187
G1 X171.417 Y42.124 E.0187
M106 S0
M106 S0
G1 X171.632 Y41.618 E.0187
G1 X172.004 Y41.213 E.0187
M106 S0
;WIDTH:0.502028
M106 S0
G1 X172.238 Y41.065 E.01034
M106 S0
;WIDTH:0.544056
M106 S0
G1 X172.471 Y40.917 E.01128
M106 S0
;WIDTH:0.57447
M106 S0
G1 X172.509 Y40.89 E.00205
M106 S0
;WIDTH:0.604884
M106 S0
G1 X172.548 Y40.862 E.00216
G1 X173.056 Y40.815 E.02335
M106 S0
;WIDTH:0.589464
M106 S0
G1 X173.333 Y40.839 E.01241
G1 X173.497 Y40.925 E.00821
M106 S0
;WIDTH:0.546309
M106 S0
G1 X173.66 Y41.01 E.00756
M106 S0
;WIDTH:0.503154
M106 S0
G1 X173.823 Y41.096 E.00691
M106 S0
;WIDTH:0.459999
M106 S0
G1 X174.244 Y41.45 E.0187
G1 X174.522 Y41.925 E.0187
G1 X174.627 Y42.465 E.01869
G1 X174.546 Y43.009 E.0187
G1 X174.288 Y43.495 E.0187
G1 X173.883 Y43.867 E.0187
G1 X173.377 Y44.083 E.0187
G1 X172.828 Y44.118 E.0187
G1 X172.362 Y43.986 E.01648
M106 S0
G1 E-.84
M106 S0
;WIPE_START
M106 S0
G1 X172.299 Y43.969 E-.02347
M106 S0
G1 X171.85 Y43.651 E-.19802
M106 S0
G1 X171.627 Y43.337 E-.1385
M106 S0
;WIPE_END
G1 Z.6 F9000
M106 S0
G1 X120.188 Y97.656 Z.6
M106 S0
G1 Z.2
M106 S0
G1 E1.2 F1800
M106 S0
;TYPE:Inner wall
M106 S0
G1 X120.484 Y97.387 E.01361
G1 X120.964 Y97.185 E.01771
G1 X121.432 Y97.145 E.01596
G1 X121.741 Y97.205 E.01069
G1 X122.21 Y97.432 E.01771
G1 X122.479 Y97.671 E.01225
G1 X122.729 Y98.074 E.0161
G1 X122.852 Y98.581 E.01771
G1 X122.799 Y99.099 E.01771
G1 X122.577 Y99.57 E.01771
G1 X122.21 Y99.941 E.01771
G1 X122.03 Y100.052 E.00719
G1 X121.551 Y100.211 E.01716
G1 X121.013 Y100.199 E.01828
G1 X120.529 Y100.014 E.01763
G1 X120.197 Y99.757 E.01426
G1 X119.912 Y99.341 E.01712
G1 X119.79 Y98.922 E.01483
G1 X119.799 Y98.401 E.01771
G1 X119.98 Y97.913 E.01771
G1 X120.099 Y97.737 E.00719
G1 X120.158 Y97.683 E.00274
M106 S0
G1 X120.465 Y97.962 F9000
M106 S0
;TYPE:Outer wall
G1 F1800
M106 S0
G1 X120.672 Y97.759 E.00983
G1 X121.017 Y97.598 E.01295
G1 X121.379 Y97.559 E.01237
G1 X121.586 Y97.592 E.0071
G1 X121.935 Y97.745 E.01295
G1 X122.18 Y97.962 E.01114
G1 X122.388 Y98.344 E.01478
G1 X122.441 Y98.722 E.01295
G1 X122.365 Y99.095 E.01295
G1 X122.168 Y99.422 E.01295
G1 X121.875 Y99.665 E.01295
G1 X121.517 Y99.796 E.01295
G1 X121.094 Y99.787 E.01437
G1 X120.775 Y99.677 E.01148
G1 X120.476 Y99.441 E.01295
G1 X120.272 Y99.118 E.01295
G1 X120.188 Y98.747 E.01295
G1 X120.232 Y98.368 E.01295
G1 X120.4 Y98.026 E.01295
G1 X120.437 Y97.99 E.00176
M106 S0
G1 E-.84
M106 S0
;WIPE_START
M106 S0
G1 X120.672 Y97.759 E-.11852
M106 S0
G1 X121.017 Y97.598 E-.13721
M106 S0
G1 X121.305 Y97.567 E-.10427
M106 S0
;WIPE_END
G1 Z.6 F9000
M106 S0
G1 X120.185 Y120.286 Z.6
M106 S0
G1 Z.2
M106 S0
G1 E1.2 F1800
M106 S0
;TYPE:Inner wall
M106 S0
G1 X120.484 Y120.014 E.01373
G1 X120.789 Y119.861 E.01159
G1 X121.273 Y119.772 E.01674
G1 X121.659 Y119.806 E.01314
G1 X122.121 Y119.994 E.01697
G1 X122.548 Y120.383 E.01964
G1 X122.799 Y120.901 E.01955
G1 X122.852 Y121.419 E.01771
G1 X122.729 Y121.926 E.01771
G1 X122.448 Y122.359 E.01753
G1 X122.131 Y122.627 E.01413
G1 X121.741 Y122.795 E.01442
G1 X121.223 Y122.853 E.01771
G1 X120.716 Y122.735 E.01771
G1 X120.276 Y122.454 E.01771
G1 X120.13 Y122.302 E.00719
G1 X119.869 Y121.851 E.01771
G1 X119.774 Y121.463 E.01357
G1 X119.799 Y121.028 E.01479
G1 X119.98 Y120.54 E.01771
G1 X120.099 Y120.365 E.00719
G1 X120.156 Y120.313 E.00262
M106 S0
G1 X120.463 Y120.592 F9000
M106 S0
;TYPE:Outer wall
G1 F1800
M106 S0
G1 X120.672 Y120.387 E.00995
G1 X120.959 Y120.242 E.01092
G1 X121.379 Y120.186 E.01441
G1 X121.586 Y120.219 E.0071
G1 X121.935 Y120.372 E.01295
